AghoraGuru/alma-mater/Sem4/ROS/100_datapoints.csv
J1,J2,J3,J4,J5,J6,X,Y,Z
135.1503395823196,-22.484718390398626,-23.548445233525996,134.8440361844598,59.157520202536574,-171.54294696052065,0.5454988095386193,0.0007326702103254808,1.1342183185242167
-20.38327143177628,-42.367292074330834,-85.21696534653061,-149.23804204280407,-47.853323111047686,51.31708938947003,0.5454988095386193,0.0007326702103254808,1.1342183185242167
-5.830021939658195,-40.379519866153984,-38.06271874487619,113.0284107268738,77.44868750714608,-360.62832437543693,0.5454988095386193,0.0007326702103254808,1.1342183185242167
105.36153351974963,-99.37251789417282,-26.297644551089604,-151.63673915697996,61.106285116093915,80.85681976576461,0.5454988095386193,0.0007326702103254808,1.1342183185242167
63.934606226093905,50.446942386181405,16.693637412737488,17.28944388428181,98.24348450718338,-31.587094673101944,0.5454988095386193,0.0007326702103254808,1.1342183185242167
50.77380063634757,108.75499285742686,-58.40952696484345,-118.7282659145929,-109.72670212975865,-293.7672024331407,0.5454988095386193,0.0007326702103254808,1.1342183185242167
97.80242109973756,-48.54564572600146,-50.759481466736446,-7.944422276987694,81.02819743966003,308.0949861086292,0.5454988095386193,0.0007326702103254808,1.1342183185242167
-0.9933776732055719,24.31101618335643,23.496247287352276,101.17809242443025,-114.38058972301033,122.33391932349184,0.5454988095386193,0.0007326702103254808,1.1342183185242167
-86.50453933061573,48.8291882495227,-24.306684990718324,101.156844725925,-116.13033141659189,-279.65959811279845,0.5454988095386193,0.0007326702103254808,1.1342183185242167
-18.278724568589553,-84.64986831033521,25.554195765040134,73.52326414190122,-62.24366443426362,39.46202134118096,0.5454988095386193,0.0007326702103254808,1.1342183185242167
72.66666740894152,52.79943922148996,15.291955765322086,-37.889331005084415,-25.38796426667146,133.38059620582294,0.5454988095386193,0.0007326702103254808,1.1342183185242167
98.22307029872087,-2.3234343884865467,22.2455885143261,-99.54135589734001,77.95166797454107,-365.96606861735745,0.5454988095386193,0.0007326702103254808,1.1342183185242167
-55.074447075795746,89.27119704149484,35.24757616736795,31.412063551777692,56.02789684714125,93.4176577188465,0.5454988095386193,0.0007326702103254808,1.1342183185242167
-143.20886943946311,31.670857966858335,-100.74673925362211,-67.930961483094,54.063321888661164,28.857393120479458,0.5454988095386193,0.0007326702103254808,1.1342183185242167
-109.40776634784658,-7.947541657367907,-90.94705359928206,-111.57538235149396,-6.127617411312855,76.06228870264573,0.5454988095386193,0.0007326702103254808,1.1342183185242167
-48.39507183589359,-10.67563374195015,69.36865849953517,138.9197538252322,-99.563973626454,-145.1276495076404,0.5454988095386193,0.0007326702103254808,1.1342183185242167
-82.62337150258381,8.517770509762343,-85.39785320730735,-91.93033050405688,39.603186600487305,278.8102207047896,0.5454988095386193,0.0007326702103254808,1.1342183185242167
-90.79987677271772,71.22327164762615,-45.79059439629158,54.02919039458001,102.83740381556419,251.43102715067414,0.5454988095386193,0.0007326702103254808,1.1342183185242167
-62.757615161617665,31.46465447037832,-68.26026618378174,-78.09840698362055,22.40944472199658,344.79714148167136,0.5454988095386193,0.0007326702103254808,1.1342183185242167
136.9861270625354,-83.52516768790873,19.995090544459686,118.61518157075983,48.95835018090406,242.08104700024035,0.5454988095386193,0.0007326702103254808,1.1342183185242167
136.7971773577121,88.8106339545024,-39.501351478154604,-88.04093137518944,-34.09819472708109,349.2410338166351,0.5454988095386193,0.0007326702103254808,1.1342183185242167
-25.236119657518316,25.003911392459543,-53.52118396667619,133.62914994181767,-15.14274292712291,230.79664211716204,0.5454988095386193,0.0007326702103254808,1.1342183185242167
75.36875878428444,-30.16792662039522,-80.99871842099215,-54.06386766427062,74.60256283932722,-295.19972143895137,0.5454988095386193,0.0007326702103254808,1.1342183185242167
-86.20116480660676,73.66451027420732,-38.10563412115641,0.8584176596363591,-84.68541583505394,174.47853523875926,0.5454988095386193,0.0007326702103254808,1.1342183185242167
98.92591510831062,-94.43633378970208,46.457206108743264,86.14455909284007,-89.17893822567109,71.52540495395317,0.5454988095386193,0.0007326702103254808,1.1342183185242167
-111.87370576891632,109.15442137131146,-34.47671161544106,152.73088526667846,10.453868637707671,260.61759909223645,0.5454988095386193,0.0007326702103254808,1.1342183185242167
8.088191707622059,-21.83906792281499,-94.14013846976471,-59.20908892809439,27.22425846357632,-0.7134117252882675,0.5454988095386193,0.0007326702103254808,1.1342183185242167
34.71400638912701,100.42393119685119,66.1989561690757,-21.270723140871183,71.72585729520381,51.341544374029354,0.5454988095386193,0.0007326702103254808,1.1342183185242167
-0.7205086921964892,-47.95409895700075,48.55489998753637,69.49367703358209,-62.115711927295166,362.84679530751885,0.5454988095386193,0.0007326702103254808,1.1342183185242167
54.002795357466255,-96.84506064999682,67.8199641491295,62.76983416874788,-76.87203125355742,104.70755173319424,0.5454988095386193,0.0007326702103254808,1.1342183185242167
-55.70975187574136,-73.76258046906426,15.94576989977736,141.75351731299918,-48.730783595927534,393.80280523585975,0.5454988095386193,0.0007326702103254808,1.1342183185242167
-27.257345904104938,97.22045724066004,-72.73240775279763,135.7443750963484,-92.24527062105133,-171.02596743145585,0.5454988095386193,0.0007326702103254808,1.1342183185242167
125.11658212189303,6.075547358116353,-49.99368440237464,98.63746274627493,-112.6699347570039,-5.585568083733051,0.5454988095386193,0.0007326702103254808,1.1342183185242167
-71.35737124561561,99.99552201091663,-37.05796071293679,-110.28821633240376,86.87415379963957,-107.3824168788172,0.5454988095386193,0.0007326702103254808,1.1342183185242167
41.11755761516196,-90.17686718709689,-76.4804402142878,33.85582823056026,-80.7420542843206,-140.8522547799477,0.5454988095386193,0.0007326702103254808,1.1342183185242167
-161.7557782167865,8.023011922831756,-9.558077651212244,-72.55111251996041,-108.16016938118926,-229.1086969387062,0.5454988095386193,0.0007326702103254808,1.1342183185242167
114.3576999336384,18.569384643075438,-71.36412771042217,-156.4559047950458,-71.59368368915815,-68.54739869926539,0.5454988095386193,0.0007326702103254808,1.1342183185242167
-87.008954452309,-17.642665371777184,-75.86661210151613,130.3326424217679,90.28093700446703,-244.17729727713936,0.5454988095386193,0.0007326702103254808,1.1342183185242167
163.17988721089228,35.48980529744014,-22.45198057965534,-39.45835611564583,106.26827774383014,-187.49134330178353,0.5454988095386193,0.0007326702103254808,1.1342183185242167
-100.83140299608127,7.471371696176519,-90.94159576156554,144.43581830832608,105.94577444159214,313.94944424205903,0.5454988095386193,0.0007326702103254808,1.1342183185242167
105.01247527256345,-99.8635421672935,-79.288336096459,-50.936452220462655,21.76484413141671,-59.3816097246185,0.5454988095386193,0.0007326702103254808,1.1342183185242167
55.64181899220034,-54.048992432395245,-5.2107086490766505,125.02794542950335,-9.254412782751245,-218.59628005431358,0.5454988095386193,0.0007326702103254808,1.1342183185242167
-32.97183615045009,80.39279923459384,49.44880070999139,-34.08403242987454,43.136251924555864,-258.1386339228294,0.5454988095386193,0.0007326702103254808,1.1342183185242167
-155.87461530983828,109.2142018906817,10.018887353808566,-3.1376194269279267,-116.43806474358978,392.40691296527393,0.5454988095386193,0.0007326702103254808,1.1342183185242167
98.49965883518695,-52.734158711563296,25.887270828311415,83.91135795107556,116.33192978055712,90.50656911468059,0.5454988095386193,0.0007326702103254808,1.1342183185242167
68.71872201610805,-43.76480616562834,-42.39374268984031,69.25837834970889,78.43775428144986,-372.56530745995417,0.5454988095386193,0.0007326702103254808,1.1342183185242167
15.390603385823454,78.2772674758003,-100.4918431514301,-22.351980740619155,95.3479747988261,195.1519174013098,0.5454988095386193,0.0007326702103254808,1.1342183185242167
-142.85082998650998,-7.3931305762222195,39.27372121669012,-100.47820800820972,-71.01316359273847,192.70800687379358,0.5454988095386193,0.0007326702103254808,1.1342183185242167
18.831433787030562,78.53616192885073,51.23138092980557,108.42774508842206,16.083270506402584,-239.21115361608133,0.5454988095386193,0.0007326702103254808,1.1342183185242167
-104.2350131240535,53.81201760877147,-39.919856653883144,-141.35048892997565,-7.3570065925128745,-360.9610389114074,0.5454988095386193,0.0007326702103254808,1.1342183185242167
-21.578903380485002,-22.40609784012915,21.803342901555254,14.521666233479607,69.40222935538728,-272.2016263388041,0.5454988095386193,0.0007326702103254808,1.1342183185242167
-49.94316241690281,43.810227914223304,-49.82132775827088,36.76406425407475,2.9846584688450974,-356.23760292115725,0.5454988095386193,0.0007326702103254808,1.1342183185242167
-133.25926682148986,-14.709914985430231,45.036011759833514,119.35181290307679,14.214693565231528,53.096461096373275,0.5454988095386193,0.0007326702103254808,1.1342183185242167
-140.60824903404034,35.90854845097701,10.065346481710876,151.04251766722598,16.287289491465145,-397.06726035600815,0.5454988095386193,0.0007326702103254808,1.1342183185242167
-40.01807225605161,-21.648630681566274,65.11177510681247,-91.50946559148451,-64.27261815438324,-163.60562703960034,0.5454988095386193,0.0007326702103254808,1.1342183185242167
-164.92614244861454,-91.17867494945534,-39.35413539166849,-90.34109368822214,67.03441427700383,-66.24064039578019,0.5454988095386193,0.0007326702103254808,1.1342183185242167
162.1013625269257,41.15331881566618,-55.669306421928056,-86.23140358673697,-34.84523403237988,100.83047696395317,0.5454988095386193,0.0007326702103254808,1.1342183185242167
-130.56160801364646,93.25759953909392,-60.84705457257867,-60.308770733227874,-37.88762865709883,32.576195651229966,0.5454988095386193,0.0007326702103254808,1.1342183185242167
-119.72744983743429,-54.38032738528024,-10.923582461033234,-67.02149920447982,109.80424940944013,149.49795187712868,0.5454988095386193,0.0007326702103254808,1.1342183185242167
64.19663116958284,51.11489933355389,36.47706570907326,-42.35294193627968,-31.87752429971661,-103.76068908567026,0.5454988095386193,0.0007326702103254808,1.1342183185242167
-26.92714354106684,-49.98456243461152,-1.0135040882895652,87.85444150447066,-50.181783587365445,-154.73900277128996,0.5454988095386193,0.0007326702103254808,1.1342183185242167
-29.613716364901194,12.62052899095913,-94.61086753754083,-0.8934944746982296,-2.5085460664343486,204.92576913132268,0.5454988095386193,0.0007326702103254808,1.1342183185242167
-153.44021597726248,-24.797728104616738,-58.49751442753791,51.89480712173565,96.4763229533819,-174.63374317293275,0.5454988095386193,0.0007326702103254808,1.1342183185242167
97.83310220339342,15.147735800070663,-36.971477962482865,-142.65819110629792,-98.26436212357032,-155.21706684938545,0.5454988095386193,0.0007326702103254808,1.1342183185242167
-70.43804042355853,67.01966356026662,-77.42258713077248,76.20279460448921,100.63930063355807,178.83368243249686,0.5454988095386193,0.0007326702103254808,1.1342183185242167
-69.14037201166138,47.48942548066222,25.07825268577949,-121.85025481703522,75.44599941614408,198.7169038668975,0.5454988095386193,0.0007326702103254808,1.1342183185242167
5.990773089939864,3.6395287300340726,-66.50341173761095,-71.29061945226366,27.493917632043832,371.4932880375761,0.5454988095386193,0.0007326702103254808,1.1342183185242167
-132.59038479504989,-76.68101902430305,50.6108146095456,154.58647256647828,-105.81033880448076,-220.3710093952549,0.5454988095386193,0.0007326702103254808,1.1342183185242167
-124.53198078704246,91.56110783069627,-41.349484073786186,-34.15195455289097,-34.96980534246913,-62.57875675563963,0.5454988095386193,0.0007326702103254808,1.1342183185242167
-62.866915639534724,-79.76186998228125,20.325606127775956,135.09694173230412,78.6327923100769,-290.4115342449469,0.5454988095386193,0.0007326702103254808,1.1342183185242167
116.75552848993419,67.63622704376505,55.15860236730336,56.37319252704373,-8.729905507679163,352.89865250591595,0.5454988095386193,0.0007326702103254808,1.1342183185242167
31.177805931879874,-9.894419801448166,-27.97938867579174,76.88420404209813,-79.44413487880854,-88.45918850695386,0.5454988095386193,0.0007326702103254808,1.1342183185242167
-137.71940040308476,-0.8636876020398319,54.05091003595649,-133.66235991912788,42.03133808222978,190.82027243768425,0.5454988095386193,0.0007326702103254808,1.1342183185242167
99.09355919830443,-53.35212635714498,-98.49086778395333,141.92210337929163,62.644231339388966,-155.00926860449854,0.5454988095386193,0.0007326702103254808,1.1342183185242167
-11.740806731849403,49.12969788720142,7.595242242706561,-107.65249214446357,-101.45913112773968,-202.96570790765395,0.5454988095386193,0.0007326702103254808,1.1342183185242167
26.5883785661415,-7.821733537168555,16.047377209367156,33.05129737142414,-67.68708307637638,-137.03304021280525,0.5454988095386193,0.0007326702103254808,1.1342183185242167
115.07094668959968,-27.8040374155172,-60.93364009094238,41.700017674929455,92.468182495011,-145.07719777437327,0.5454988095386193,0.0007326702103254808,1.1342183185242167
132.01719076033623,-65.46615250038329,68.98303156487376,2.130822749765258,60.84417557924198,86.78590475007451,0.5454988095386193,0.0007326702103254808,1.1342183185242167
151.8966611459797,67.86204157956266,1.0745768680140628,-122.56919322766637,66.50250277759196,396.18974739151906,0.5454988095386193,0.0007326702103254808,1.1342183185242167
-88.14596502862706,-8.74715941747462,62.095022807510844,47.476295818721894,-22.414071006564782,-353.62091037144313,0.5454988095386193,0.0007326702103254808,1.1342183185242167
-101.93738021987281,102.56862694982365,-70.2759037509077,-109.44638067138885,80.50924374584955,-23.631847974790333,0.5454988095386193,0.0007326702103254808,1.1342183185242167
-49.49732549470151,42.324812303065016,36.061084154397435,-123.77336768578687,66.02269379372117,-217.91227905925598,0.5454988095386193,0.0007326702103254808,1.1342183185242167
88.77695172876645,-14.467159616195673,-1.7153134126812688,118.84030828005388,-102.77787262194538,-267.2524261473425,0.5454988095386193,0.0007326702103254808,1.1342183185242167
-0.4127366834231907,-59.54255028708593,23.275796338953683,23.03132669421865,3.380525766595909,127.53932043715167,0.5454988095386193,0.0007326702103254808,1.1342183185242167
-75.82911697517196,-43.21351414963439,-52.45421549051328,-64.40173284152507,48.55627404513402,318.9124834835179,0.5454988095386193,0.0007326702103254808,1.1342183185242167
-140.2514199456275,86.17425324562711,3.084567701516761,66.80156418265315,80.58569146329836,-161.0644017190732,0.5454988095386193,0.0007326702103254808,1.1342183185242167
-18.95699334289975,-4.120567396940302,-85.0644461102666,11.660127204416739,-31.46813267853429,122.28034483855697,0.5454988095386193,0.0007326702103254808,1.1342183185242167
35.383541664566735,-56.293501133341195,3.5605994644590027,-27.107600521528127,38.76421776591832,-299.21627351779307,0.5454988095386193,0.0007326702103254808,1.1342183185242167
-126.21653990454907,46.018807461925775,-88.32121050067676,22.290759120149175,16.154330948156343,340.6836587543854,0.5454988095386193,0.0007326702103254808,1.1342183185242167
-82.99227052883087,51.31250433985119,-17.30784194776065,-89.88062787009949,13.42195774524518,292.8127440255606,0.5454988095386193,0.0007326702103254808,1.1342183185242167
86.23587966700953,-29.02442052711703,45.859164614853455,145.77634505200666,-29.02078244732725,-247.13970793730536,0.5454988095386193,0.0007326702103254808,1.1342183185242167
-162.23492081824406,-8.025633458337111,-79.10824769225027,-63.00071846353447,-31.99390384792538,-114.62114868806441,0.5454988095386193,0.0007326702103254808,1.1342183185242167
126.2193517106536,-32.311166651372645,41.468537564921974,-80.95166196976763,119.82058119614285,-184.8409065939764,0.5454988095386193,0.0007326702103254808,1.1342183185242167
-144.34113580906921,-18.597276934852772,-100.34979468458846,-158.6637430067516,56.373205528280124,-348.35602298691794,0.5454988095386193,0.0007326702103254808,1.1342183185242167
139.58728516378517,22.841712325673427,-9.24392051914046,-120.2881383120577,-46.07716416989484,399.06700721369907,0.5454988095386193,0.0007326702103254808,1.1342183185242167
-142.4659056581068,-101.6327640669004,-45.64028410974707,-30.783550230989363,62.173023778984174,-295.13605864371374,0.5454988095386193,0.0007326702103254808,1.1342183185242167
54.487944094766874,-74.10409761342717,30.23327985025429,-63.35880178777934,78.49939819180216,-265.4351248837342,0.5454988095386193,0.0007326702103254808,1.1342183185242167
4.231969398289266,81.94129531840755,-4.444466014965727,66.5426260248627,47.85177051314929,295.89624109947886,0.5454988095386193,0.0007326702103254808,1.1342183185242167
162.74550265575476,28.061977367676178,-56.751697618286315,11.246150780892435,-107.73635806913474,-382.7372660929037,0.5454988095386193,0.0007326702103254808,1.1342183185242167
57.80581872706412,-82.40941249377065,-79.67447114549411,106.35978829547503,-109.79929123104789,101.09822860959656,0.5454988095386193,0.0007326702103254808,1.1342183185242167
-145.95949153451306,10.957130318019566,-82.12218720493415,-44.080914591268225,72.07261818700255,315.1267695274248,0.5454988095386193,0.0007326702103254808,1.1342183185242167
-6.113609235180149,-65.16365112082576,58.50669306457024,80.48152822929211,27.557444290048636,-100.05230800665441,0.5454988095386193,0.0007326702103254808,1.1342183185242167
39.831516255682686,-0.30087473459342107,-93.81588211740876,-113.15790546417685,-42.5942799636702,182.1109940935745,0.5454988095386193,0.0007326702103254808,1.1342183185242167
30.337983622087535,78.51205770165822,22.033403219025075,-96.3802253167367,-21.65507095546903,-278.6917293537842,0.5454988095386193,0.0007326702103254808,1.1342183185242167
-15.43722052024836,-2.216266432597024,-89.46183355328188,70.64854030685507,119.99431948730665,-339.382635000031,0.5454988095386193,0.0007326702103254808,1.1342183185242167
-69.46466803326963,107.65268309010366,27.28062925215366,129.2097991746001,19.127852380196146,-329.5440846258473,0.5454988095386193,0.0007326702103254808,1.1342183185242167
134.93100556252455,37.31868288254847,62.45406906650595,-47.69486165363898,-81.36887010389472,291.40477741653194,0.5454988095386193,0.0007326702103254808,1.1342183185242167
119.38524091478371,-94.68918928579316,-102.5710711156022,137.6837659649982,15.918813948297583,-4.592548211882956,0.5454988095386193,0.0007326702103254808,1.1342183185242167
-163.93656586117552,-64.87119784552152,-107.76378628673933,-74.61599060523471,107.55609708256517,-197.53984379503012,0.5454988095386193,0.0007326702103254808,1.1342183185242167
-88.50955652532396,72.85729523131829,-65.19903418911169,-87.79939560902878,79.23336446146277,-290.0919590006434,0.5454988095386193,0.0007326702103254808,1.1342183185242167
69.04148704735204,-84.99909687511342,44.20676309946191,25.996655719189476,-31.530706590457115,353.0824934875019,0.5454988095386193,0.0007326702103254808,1.1342183185242167
159.98366416414785,-29.128233946519387,-0.2619016707166537,4.06047985908387,104.47679046337237,135.72457413189454,0.5454988095386193,0.0007326702103254808,1.1342183185242167
-15.764118767668094,-12.646325224682073,18.639637754120827,35.57801963436077,49.23322546177468,-234.40188506164566,0.5454988095386193,0.0007326702103254808,1.1342183185242167
153.09829350717888,48.725928657536855,-46.71771354211408,-79.42032533706524,39.55574828893859,33.847011959317115,0.5454988095386193,0.0007326702103254808,1.1342183185242167
-35.38137934825343,13.15496123507829,-4.312373659317046,-40.40733940439378,-73.54380746602202,-351.6384721980872,0.5454988095386193,0.0007326702103254808,1.1342183185242167
94.8680156617151,61.25132824466908,-56.16225245641207,-19.175334946767606,23.714041410044416,30.95068161745405,0.5454988095386193,0.0007326702103254808,1.1342183185242167
60.12987352083394,42.02885657018862,-35.93882707569989,-126.677330545037,25.353375492633745,-272.0511833362391,0.5454988095386193,0.0007326702103254808,1.1342183185242167
-21.329360906478485,2.70201389866115,-62.30912899618629,128.74707842705294,16.788013266358007,-349.7059946414886,0.5454988095386193,0.0007326702103254808,1.1342183185242167
99.84072976903184,-39.592831306263506,-40.9351713232105,-19.22788496666911,46.91579488384994,-141.36455706724303,0.5454988095386193,0.0007326702103254808,1.1342183185242167
52.717152274085464,-61.3277936763071,-56.1023227158769,-16.531090504469688,12.07325164615213,-57.12688156916562,0.5454988095386193,0.0007326702103254808,1.1342183185242167
135.84115430622677,-4.003209761240143,-45.81202135501444,84.8908774041762,64.60518285238734,-59.785396729092724,0.5454988095386193,0.0007326702103254808,1.1342183185242167
134.65946723055225,-2.538110629165999,-5.71335218303976,-157.02544339419194,90.27683708127788,373.59037890514196,0.5454988095386193,0.0007326702103254808,1.1342183185242167
103.27441340404647,61.79289807575938,18.004947964161033,133.05935142613748,61.5928905712349,142.870548971301,0.5454988095386193,0.0007326702103254808,1.1342183185242167
-131.37681049601065,-15.18386149049718,46.36466254551436,50.11467860925495,-23.614734439664147,254.92719918806267,0.5454988095386193,0.0007326702103254808,1.1342183185242167
60.914840211334734,62.51484293023793,-32.87726136154457,145.7047677018016,-33.341883735964785,-320.52488612726444,0.5454988095386193,0.0007326702103254808,1.1342183185242167
-150.0148806007484,-45.458618793459635,45.8512308820919,-104.64933483906304,95.90864868379947,-270.959085000663,0.5454988095386193,0.0007326702103254808,1.1342183185242167
113.30840539511945,88.08477161135517,8.750755901081803,70.54406022137886,63.78689189074643,-7.341589154989663,0.5454988095386193,0.0007326702103254808,1.1342183185242167
-61.54992418951586,-89.3113786468667,-17.087519118229167,127.75885606156885,-81.32614596150675,-129.93759178046088,0.5454988095386193,0.0007326702103254808,1.1342183185242167
-27.63325978899624,67.50315955206241,-50.08672368360332,-18.751597592562604,49.27249345068674,234.89875973094672,0.5454988095386193,0.0007326702103254808,1.1342183185242167
-139.08438941204253,-3.0586297274892615,62.33931463674821,155.5835309189111,110.43543497218471,-53.26443410866517,0.5454988095386193,0.0007326702103254808,1.1342183185242167
-9.710496274210016,-55.34330059703347,-2.8115715660529617,-59.60020214389097,53.849864689522235,44.11545613265713,0.5454988095386193,0.0007326702103254808,1.1342183185242167
-44.73809652974154,60.86035325876554,-72.11834443049271,136.7666190875173,-111.25487304963029,83.05082775071435,0.5454988095386193,0.0007326702103254808,1.1342183185242167
-65.31774458723133,-26.42139627975473,-17.713245606625463,-95.20856898001907,-113.2353349727421,-385.12788420365763,0.5454988095386193,0.0007326702103254808,1.1342183185242167
-161.74000949547738,64.11783970257292,-53.6393260777905,-122.68845293371254,114.96617837309634,-347.3233862740779,0.5454988095386193,0.0007326702103254808,1.1342183185242167
125.87681074623396,-90.55059842141546,-56.71051949647524,113.66007332094944,113.29608248729761,253.72743103343976,0.5454988095386193,0.0007326702103254808,1.1342183185242167
112.89164882066365,45.8773650492293,43.36478663731154,-2.688501376317049,102.94786279077928,-230.41227885369437,0.5454988095386193,0.0007326702103254808,1.1342183185242167
95.17837724252422,-98.11599307500572,-73.95616480160456,-55.089237737819516,-0.6916138492261439,-390.15646352991683,0.5454988095386193,0.0007326702103254808,1.1342183185242167
-14.772123392091146,-40.05353378306965,-59.62370649779413,-77.54691903501552,-97.47063189479123,-155.74992336927193,0.5454988095386193,0.0007326702103254808,1.1342183185242167
-104.41281042667903,101.16762864217296,-38.89496553055241,132.9269540004235,90.1928623182582,309.22744482992573,0.5454988095386193,0.0007326702103254808,1.1342183185242167
155.27197026073173,-48.23283558271064,17.038774504288725,-152.5456140512842,-114.74877681653061,-186.3332525274009,0.5454988095386193,0.0007326702103254808,1.1342183185242167
131.12439906610763,-93.789020251588,-32.26968121383737,134.36421913053033,-82.0559576889759,-198.44677520241117,0.5454988095386193,0.0007326702103254808,1.1342183185242167
-16.12490873943341,-37.890125255444005,-20.785976445426442,127.09095169564534,12.724448911582783,82.83516404787338,0.5454988095386193,0.0007326702103254808,1.1342183185242167
-63.85227949926089,8.608927194721886,-41.70733012095852,155.05086430159673,-31.34621298670241,38.85937970162922,0.5454988095386193,0.0007326702103254808,1.1342183185242167
134.8752127823766,-1.7126247542144313,-54.926823760959515,-131.74991002845417,-105.30639677589468,-129.32521586568538,0.5454988095386193,0.0007326702103254808,1.1342183185242167
-115.56774715087778,-31.896332450916006,-28.166745445114955,-122.41050787360642,-114.18697323267483,271.7220105228563,0.5454988095386193,0.0007326702103254808,1.1342183185242167
-40.61066922680867,38.302136191141614,-15.250864349521649,71.04265353432751,-13.93111079559364,308.7482041252134,0.5454988095386193,0.0007326702103254808,1.1342183185242167
67.58775896986526,45.609745822865875,50.57403422398605,-28.803257603933332,-43.06047734385076,-255.91934174975765,0.5454988095386193,0.0007326702103254808,1.1342183185242167
98.35253825693968,-91.2179665768582,52.79836825594876,-2.2621949130753194,-91.01593011983732,246.30015283151158,0.5454988095386193,0.0007326702103254808,1.1342183185242167
108.47055619917722,32.159067418871786,-98.04360389232,-9.944991478931172,117.22786793764269,177.43904544195198,0.5454988095386193,0.0007326702103254808,1.1342183185242167
-33.11497731047447,-65.99820131400199,52.360112845605585,28.921010722174913,-84.38630719125602,-231.1728343527287,0.5454988095386193,0.0007326702103254808,1.1342183185242167
-149.2754715728061,-23.25063636147695,-82.23256693255843,-82.89663461415302,-32.74229582155573,-149.11855054362402,0.5454988095386193,0.0007326702103254808,1.1342183185242167
64.25263574502523,-37.83077180417453,50.52401409999149,-62.289704075407144,42.21881853586183,-69.61553834749026,0.5454988095386193,0.0007326702103254808,1.1342183185242167
-16.95498727952898,-1.6955927394868553,-93.84775917075369,80.79665771142871,-67.49359264516644,120.24335544983614,0.5454988095386193,0.0007326702103254808,1.1342183185242167
38.26596189176689,-31.033419856817872,-92.36306205052408,82.19370983611998,-105.88244895331809,-259.90663535487596,0.5454988095386193,0.0007326702103254808,1.1342183185242167
67.13206447349529,-51.693875981206915,-90.56602053337642,66.80994735354088,4.164310856944553,-131.49788215103052,0.5454988095386193,0.0007326702103254808,1.1342183185242167
114.90692653309947,75.65035265084765,-68.50776289844637,-60.629623640468324,-21.78949189726714,-272.7618464355297,0.5454988095386193,0.0007326702103254808,1.1342183185242167
-37.45991747191846,57.02919271972232,36.48164363596274,-90.70440477783973,-108.06932673180714,-183.5972946497094,0.5454988095386193,0.0007326702103254808,1.1342183185242167
100.20471667643301,76.02338672548606,25.96099708863818,-137.04094024946858,13.111492601888642,156.03744524104843,0.5454988095386193,0.0007326702103254808,1.1342183185242167
81.75513911653425,28.196608306860014,-70.81128813898908,-136.27598520760657,111.94556734116466,-46.77605764225541,0.5454988095386193,0.0007326702103254808,1.1342183185242167
-119.30863709692524,95.48140216386582,-51.40129918221372,122.8902712163275,-117.07734428492138,161.4767271509926,0.5454988095386193,0.0007326702103254808,1.1342183185242167
-134.0278274897401,-109.63647740817194,-75.02275913412129,-28.73546316454565,-20.720019578242074,-16.527295732488028,0.5454988095386193,0.0007326702103254808,1.1342183185242167
97.0639986992889,40.75727097743592,63.97501367553849,-59.66627107175363,-22.67143360677332,37.355102349597246,0.5454988095386193,0.0007326702103254808,1.1342183185242167
-39.748885721567234,77.05512829860814,-1.8776937327917267,-130.62336567460275,15.256455193826952,390.3575584670979,0.5454988095386193,0.0007326702103254808,1.1342183185242167
-27.51024368000688,-44.04047389752833,-91.5208072859447,123.3018803192673,27.825816725081012,-362.8330300463121,0.5454988095386193,0.0007326702103254808,1.1342183185242167
-35.95396645744941,-67.69920690792623,26.027941561054064,113.69197224878832,46.59598256521042,366.36115060183147,0.5454988095386193,0.0007326702103254808,1.1342183185242167
-79.88367800689386,85.09306224010592,-59.987140982191114,34.5070187138237,-8.028485880701666,-185.91795951979753,0.5454988095386193,0.0007326702103254808,1.1342183185242167
80.40367888921986,-104.52396098598827,-53.44820300690968,99.88748467825991,-80.84986723770405,348.1916611376853,0.5454988095386193,0.0007326702103254808,1.1342183185242167
-132.04452400850724,107.38646803777522,-42.773690787740364,71.8151448456176,-54.57482740905918,-327.21407471107466,0.5454988095386193,0.0007326702103254808,1.1342183185242167
-110.89277260692805,-34.959464064751785,50.75762149435914,21.34661348819742,-96.88909845014403,237.98389354975325,0.5454988095386193,0.0007326702103254808,1.1342183185242167
-163.14753854823599,-50.55864643899933,19.349900042596175,40.95952705853563,77.69070505095041,369.5872576657107,0.5454988095386193,0.0007326702103254808,1.1342183185242167
42.086675694338425,18.685979309327365,-30.219456544628855,101.99794206173584,61.050142810526495,-114.07595870463183,0.5454988095386193,0.0007326702103254808,1.1342183185242167
117.63584098704501,-35.99402239233419,-50.23850592776955,-74.38268008350896,3.445939450843923,-310.99237313854917,0.5454988095386193,0.0007326702103254808,1.1342183185242167
-155.20098278367436,-40.59469118553447,-35.68613997335433,18.680663410594434,47.00116771860044,-41.93778426334774,0.5454988095386193,0.0007326702103254808,1.1342183185242167
-90.82285701205943,-20.29426325283957,-96.5848175396159,52.19161964886948,2.9054061444899872,-219.18277179181737,0.5454988095386193,0.0007326702103254808,1.1342183185242167
111.0255549118624,-43.18228641240954,-105.73540908433785,-129.59390513435403,39.195733075460936,259.4126478419523,0.5454988095386193,0.0007326702103254808,1.1342183185242167
102.85395066962133,-56.28789506889808,-49.17674041523567,-15.278253368508985,78.07988490581442,87.22076860552363,0.5454988095386193,0.0007326702103254808,1.1342183185242167
65.90392077949068,-59.26038858731478,50.60867197165123,105.64761780919832,95.77632148648428,149.85992746032662,0.5454988095386193,0.0007326702103254808,1.1342183185242167
-134.405992763841,93.02394090892969,-65.37751722684163,130.3444945274262,-52.23109516859111,152.81104830486333,0.5454988095386193,0.0007326702103254808,1.1342183185242167
-74.58051290541235,73.0841935970366,-83.22076254219519,-127.24744874774757,34.46884750973348,138.7455316179885,0.5454988095386193,0.0007326702103254808,1.1342183185242167
-1.8627049657558246,52.9133245821192,-33.44748833338339,-148.69574266287654,-108.14029040032464,-76.95180218235055,0.5454988095386193,0.0007326702103254808,1.1342183185242167
-20.307010565130156,-62.07258110964704,-47.95651495431127,142.3115729686442,-93.35734488520399,-55.99736332744635,0.5454988095386193,0.0007326702103254808,1.1342183185242167
123.5862181160586,100.20454212097107,68.97544789864878,107.77505429926327,104.89432487103508,-320.8952428475469,0.5454988095386193,0.0007326702103254808,1.1342183185242167
28.347806554991735,-67.88876824370882,27.237266256852166,-120.75827863148024,111.94637879138386,-128.32204247412557,0.5454988095386193,0.0007326702103254808,1.1342183185242167
-66.53665056558938,64.1476088850086,-77.3782715729889,6.655406294664829,-27.160858253683188,-310.75116480690144,0.5454988095386193,0.0007326702103254808,1.1342183185242167
-93.76483893385677,-108.68536239193392,54.6609505818891,21.87117169921811,-1.372349066020547,-265.44391839533796,0.5454988095386193,0.0007326702103254808,1.1342183185242167
76.16216956473849,22.18548138774065,50.67314189483878,36.42003023888094,50.34311825472784,270.046364396566,0.5454988095386193,0.0007326702103254808,1.1342183185242167
-53.71605309460135,-82.02443620753664,-70.35852315861526,-147.80750102392648,-4.818384067693799,-266.2284697638632,0.5454988095386193,0.0007326702103254808,1.1342183185242167
-131.08023193177442,0.4065716166755493,-94.88120340813155,-35.65828275248248,81.3225374350427,-390.0793555846947,0.5454988095386193,0.0007326702103254808,1.1342183185242167
-67.9286683478269,105.93989255725873,-106.77911943367205,-115.6888571783066,11.288524927832782,-112.83037671025193,0.5454988095386193,0.0007326702103254808,1.1342183185242167
97.59669179782372,-104.95511985688444,62.03433514190607,-144.46691235814566,33.674451587297284,304.01551605916836,0.5454988095386193,0.0007326702103254808,1.1342183185242167
-109.28161717219334,38.73437616599202,-82.30441468134222,-118.13983096888296,60.00923537406902,216.7369877076328,0.5454988095386193,0.0007326702103254808,1.1342183185242167
146.15110790603705,67.37639044298598,8.920975448850484,-78.83875937858612,49.91766047281493,193.93932938701926,0.5454988095386193,0.0007326702103254808,1.1342183185242167
156.893236103099,-6.008430865326517,38.68189913308754,5.446390989855502,69.41771788707996,-33.82313733482698,0.5454988095386193,0.0007326702103254808,1.1342183185242167
111.56262465763155,-76.8584874526396,35.49522407174791,139.7643641356746,87.41362317874504,-69.12777875290237,0.5454988095386193,0.0007326702103254808,1.1342183185242167
37.90535257785635,-107.97721735675178,-75.29188898371837,-140.56230179658183,-92.59761572580409,39.77118660672306,0.5454988095386193,0.0007326702103254808,1.1342183185242167
-34.069319324138945,-84.13310743919932,-16.787431618419006,-41.734454885173946,-30.38023004054793,-322.41043893135463,0.5454988095386193,0.0007326702103254808,1.1342183185242167
-45.44562015764811,-26.677655426759685,-23.428567864569203,-53.595436025008354,-46.453888049987185,-163.62407180005104,0.5454988095386193,0.0007326702103254808,1.1342183185242167
-58.24502905515389,-75.87637660998172,-9.835495037604261,-78.5181070949524,-1.3239795508141725,295.6399290761435,0.5454988095386193,0.0007326702103254808,1.1342183185242167
108.61551990207346,-35.28208130799864,12.563279530779184,-152.6945786970369,-87.44871396659144,185.71870835487334,0.5454988095386193,0.0007326702103254808,1.1342183185242167
-142.65221023585613,-38.84289492752775,47.36409407472658,78.79566107198431,-7.540845286385277,-24.966747093627703,0.5454988095386193,0.0007326702103254808,1.1342183185242167
-144.18794231627209,-96.3454104869612,-23.257198817377372,15.60173998196322,-73.09895173881628,-42.27397815692598,0.5454988095386193,0.0007326702103254808,1.1342183185242167
-69.70332294942028,29.506707371211917,61.28784803081251,48.16988601438214,22.77722532180792,286.9440020517211,0.5454988095386193,0.0007326702103254808,1.1342183185242167
-58.10297118710446,-69.57939567039352,-108.2155011924692,-115.1705953551216,-102.12095444877556,215.4610301710153,0.5454988095386193,0.0007326702103254808,1.1342183185242167
-32.08062918380935,-50.09646983860059,-40.88250968014911,27.406302363485764,-16.270791038423283,289.406987443659,0.5454988095386193,0.0007326702103254808,1.1342183185242167
20.031549429310473,97.16585832037,56.493626894325416,-69.361995752251,98.49614519044056,355.7052059008321,0.5454988095386193,0.0007326702103254808,1.1342183185242167
142.0094343489688,-38.181710487885795,-3.2814641088784953,50.72526821534183,117.16095274768537,137.38285448731324,0.5454988095386193,0.0007326702103254808,1.1342183185242167
-105.41359517250007,102.18798943467834,-97.42763632803145,-49.483899862197944,8.625358954733827,-150.56713357832524,0.5454988095386193,0.0007326702103254808,1.1342183185242167
-74.86451532198107,62.69801634171921,-92.67625551551484,-69.88198918820665,-94.79969151247384,117.85163170954536,0.5454988095386193,0.0007326702103254808,1.1342183185242167
153.9275768409624,46.49599667653746,-0.32417275813895685,98.12069588552441,-44.755540468126085,-100.7136702218528,0.5454988095386193,0.0007326702103254808,1.1342183185242167
23.065351102734724,-9.062114600382841,-70.45754273920389,84.60299408315493,-56.91849497126907,-217.69602393085182,0.5454988095386193,0.0007326702103254808,1.1342183185242167
35.35714305165288,-30.47680090947425,-68.80203790571312,-55.96731099208661,7.766208206629869,-20.294684155907476,0.5454988095386193,0.0007326702103254808,1.1342183185242167
83.29239225434208,-54.57576646022589,-55.16442532738476,106.65030389215536,19.640320425954997,-376.55106546380256,0.5454988095386193,0.0007326702103254808,1.1342183185242167
133.16872586668268,73.0267617971451,55.46146829537591,80.940882633104,-0.11810021548535587,-136.14222632839682,0.5454988095386193,0.0007326702103254808,1.1342183185242167
131.30968446361476,-41.986151657357766,-46.694816277061584,-98.85975171528706,92.97751563966011,-173.75905193274193,0.5454988095386193,0.0007326702103254808,1.1342183185242167
107.42910690049877,59.942102834037,18.520736485124047,-5.970739109703658,-44.701243110091724,-195.14815777420208,0.5454988095386193,0.0007326702103254808,1.1342183185242167
114.51655138821576,8.88815578973228,-100.22268498266706,-25.34805350661057,-83.68637510987449,196.63954831442493,0.5454988095386193,0.0007326702103254808,1.1342183185242167
-103.39941889281738,-21.24599918602506,-53.85577066596629,79.40029472331736,4.380746646788879,-153.22783213504732,0.5454988095386193,0.0007326702103254808,1.1342183185242167
-106.28072521331754,86.2701657942664,-64.9542466597703,-3.514404925335441,103.12056583841414,203.96206804441113,0.5454988095386193,0.0007326702103254808,1.1342183185242167
-97.80124732220442,13.291176085536591,-70.6113736901425,-121.16321578820089,-83.40431069680608,-371.5239793764228,0.5454988095386193,0.0007326702103254808,1.1342183185242167
119.79243606962967,60.8649616866515,35.611234207818995,104.77201782140179,-18.876209142583065,-150.93575527236897,0.5454988095386193,0.0007326702103254808,1.1342183185242167
43.92483595410445,-54.1933018457287,-47.13970951422029,-12.143589528944318,-37.36927561457689,-16.02611659361628,0.5454988095386193,0.0007326702103254808,1.1342183185242167
102.5122304438176,-99.31555158035914,-51.81300426616078,-25.983362203953504,2.450776438333378,-271.2378030715755,0.5454988095386193,0.0007326702103254808,1.1342183185242167
-74.92353924874645,78.57935319321513,58.270017988620054,35.29645997661788,-15.337787762155344,85.69664183307879,0.5454988095386193,0.0007326702103254808,1.1342183185242167
118.4604894974317,82.7567795093972,-21.44076210710412,41.34610942479128,41.02926283733589,270.4070002872379,0.5454988095386193,0.0007326702103254808,1.1342183185242167
150.59809562946134,59.0475464151271,-5.614443402726209,-94.32536152277277,-44.61446020179244,-120.94802568276856,0.5454988095386193,0.0007326702103254808,1.1342183185242167
97.30240791018804,31.939033919648267,-92.49343337750554,102.54549888885867,-97.24608056691385,-373.8073466879917,0.5454988095386193,0.0007326702103254808,1.1342183185242167
30.26875857509748,44.292412516276016,-73.17018396971122,134.90219019207024,105.14372245371945,232.7462003339051,0.5454988095386193,0.0007326702103254808,1.1342183185242167
82.29029427889242,101.31523962214516,-22.82919615087667,140.73851987915566,-34.85053432374046,214.8060741878486,0.5454988095386193,0.0007326702103254808,1.1342183185242167
114.07281074288181,-63.431637802323266,-41.687925751523025,-1.4823654553200072,-62.216195280866515,391.22042144464024,0.5454988095386193,0.0007326702103254808,1.1342183185242167
52.85189854996537,98.6791804520229,-12.232509656870093,-115.70448134929414,-56.31531614089455,206.0469142940541,0.5454988095386193,0.0007326702103254808,1.1342183185242167
-17.169419723641113,-52.28714294147313,-85.82438532628677,37.19229922702394,87.77416621221911,269.93824729859114,0.5454988095386193,0.0007326702103254808,1.1342183185242167
-104.22299131821745,35.45484069921568,13.618655086109527,-137.52698128654367,-102.78210098423507,-115.26248309035572,0.5454988095386193,0.0007326702103254808,1.1342183185242167
143.25005148021194,-107.44044938634242,20.076205698330426,-90.17316697417183,-96.84069512570619,-56.21972189359224,0.5454988095386193,0.0007326702103254808,1.1342183185242167
-73.17495510924712,-59.96406851492627,-81.8661998675365,54.59742150659895,17.19240439025768,106.12028891888451,0.5454988095386193,0.0007326702103254808,1.1342183185242167
-65.28884942854597,36.79558810377986,-35.95875579834494,39.75338531041231,36.6604433971236,161.6131045550327,0.5454988095386193,0.0007326702103254808,1.1342183185242167
-111.10112665719953,-40.97848852450764,-52.98831444922177,119.1704707361929,-102.16261266264699,45.293657037581966,0.5454988095386193,0.0007326702103254808,1.1342183185242167
-133.32175370739756,-89.85687690883583,-55.43451306390788,111.79489901724509,-86.14589975282878,-72.48056169299326,0.5454988095386193,0.0007326702103254808,1.1342183185242167
-149.58014896869904,75.30032936394102,-32.26361059294322,27.352089318463413,75.43508950062775,329.3214579854791,0.5454988095386193,0.0007326702103254808,1.1342183185242167
-89.86716563934816,50.22701220952507,13.841580935538772,130.65261918024214,117.58782564722472,151.44115193853497,0.5454988095386193,0.0007326702103254808,1.1342183185242167
-31.68036607734851,92.29815856806525,49.56651448661145,61.255109916285704,-80.93462742000158,385.7978995171053,0.5454988095386193,0.0007326702103254808,1.1342183185242167
-93.98331408624519,24.961608703797765,-92.7380217220167,-138.4355448354733,110.12464599476792,-56.66809619520495,0.5454988095386193,0.0007326702103254808,1.1342183185242167
-108.56075266253796,-46.87309600385346,-41.13801547492375,0.41562487918434954,-77.14711555824084,-5.1665404854628605,0.5454988095386193,0.0007326702103254808,1.1342183185242167
-94.02939044722788,43.41393827576721,-37.3009894542615,89.17809560711018,107.26101452767202,-185.74696943770635,0.5454988095386193,0.0007326702103254808,1.1342183185242167
26.681629408584968,105.309887787518,-1.571927715439145,0.3352765161564548,75.49714862132018,27.749440243948015,0.5454988095386193,0.0007326702103254808,1.1342183185242167
43.26083771306415,-27.101936212733122,-60.66239866611538,73.29034167663178,-35.21468777934311,-21.042823408965432,0.5454988095386193,0.0007326702103254808,1.1342183185242167
-160.79444017600736,95.70938503838204,37.53622208561765,77.5053443644668,55.590348630194796,80.72245915275778,0.5454988095386193,0.0007326702103254808,1.1342183185242167
86.14321908760962,102.46948880896997,-56.45829818865177,-34.305055977791056,119.10979242988387,95.40313045138953,0.5454988095386193,0.0007326702103254808,1.1342183185242167
149.407631098992,-98.11967613628353,-104.44941438206853,-151.0746935080596,77.03358415878085,-246.41760148423043,0.5454988095386193,0.0007326702103254808,1.1342183185242167
109.98499775884818,68.94207638664466,56.99510721763872,97.34977281100572,-68.10807277162802,-301.75082818226906,0.5454988095386193,0.0007326702103254808,1.1342183185242167
159.35780294448966,-94.92226300855158,-63.826622311473635,-61.29711491493114,-49.16893820849347,-31.64977767694603,0.5454988095386193,0.0007326702103254808,1.1342183185242167
147.83160027551412,-53.75164607538399,68.34174415091888,-140.17848819598044,85.47013511526993,-369.3525873894657,0.5454988095386193,0.0007326702103254808,1.1342183185242167
123.87777866074839,-46.62795120330308,-62.45118601937605,-127.26270663195078,59.90558483618136,-291.4667667149238,0.5454988095386193,0.0007326702103254808,1.1342183185242167
-12.645657366523125,81.61523577436813,-18.81071262500477,157.4311084191562,83.08924743335035,-169.44217141699198,0.5454988095386193,0.0007326702103254808,1.1342183185242167
86.95433207203962,95.38743536522375,-56.955475238853346,147.99089036686235,76.42706839555589,174.44871646191427,0.5454988095386193,0.0007326702103254808,1.1342183185242167
136.19031647927147,-86.79089157823343,-103.684483356576,70.11229447196754,-57.03365382580735,-347.24679053676334,0.5454988095386193,0.0007326702103254808,1.1342183185242167
41.750432626669806,-7.579457332625509,-79.35800669791655,-95.80537875583786,-42.475998996283465,-241.59923891440593,0.5454988095386193,0.0007326702103254808,1.1342183185242167
130.95026558957136,-16.862673805803666,-89.45740138326808,119.87333193918721,19.78429118731151,351.8993769140553,0.5454988095386193,0.0007326702103254808,1.1342183185242167
-18.758453077308758,-74.47828520643075,-2.76915645591167,26.259575072968573,-22.639727555308326,-340.04367785110014,0.5454988095386193,0.0007326702103254808,1.1342183185242167
-78.51623698991226,-99.54875555263105,47.07970647498132,129.76573158018357,-46.43329876752992,263.61327145633936,0.5454988095386193,0.0007326702103254808,1.1342183185242167
-76.58850696258784,62.98254460192905,-70.71134481940068,41.925910257181954,61.73808667683667,-90.65224618835896,0.5454988095386193,0.0007326702103254808,1.1342183185242167
-17.0353031544644,-60.599225941381356,-2.294553531937595,131.76686669066095,110.12668880318145,-380.1219288628387,0.5454988095386193,0.0007326702103254808,1.1342183185242167
-160.12607326054663,-57.712349310468674,65.8193911027555,1.0639389745780932,47.29447493111957,2.1028028849460725,0.5454988095386193,0.0007326702103254808,1.1342183185242167
-60.5810880936896,59.62446891205684,-102.28528631487926,-22.59902081816466,48.44249222089644,349.2274063244022,0.5454988095386193,0.0007326702103254808,1.1342183185242167
-95.25346760705766,-22.254367361127265,-11.70342907149697,108.89227967158081,-116.32692333491218,-330.2379629649296,0.5454988095386193,0.0007326702103254808,1.1342183185242167
-125.68521214107014,-37.29237241878407,25.97851561167522,60.26487888727138,-118.29279880038715,-42.39204973969004,0.5454988095386193,0.0007326702103254808,1.1342183185242167
-142.9282303323459,23.431515068379582,22.470384658435165,8.730758572522006,-55.34717433409972,-229.03419248045685,0.5454988095386193,0.0007326702103254808,1.1342183185242167
135.19768358302775,-92.67612287324803,-35.41343517512985,-136.9404387047534,-85.94354271524588,-220.72378589857564,0.5454988095386193,0.0007326702103254808,1.1342183185242167
-87.63873306313509,64.17299523053453,5.37249452248669,-70.30197346916445,-60.50333640758354,-4.9055416400721015,0.5454988095386193,0.0007326702103254808,1.1342183185242167
-108.57852635603864,-16.766149151945896,-23.224429420656406,-87.51467380636079,-6.317591713756315,12.835264353420314,0.5454988095386193,0.0007326702103254808,1.1342183185242167
-15.733002394611589,-24.245222980504124,-50.18180760282461,19.201343769097264,-96.14296376336101,-168.10762110097323,0.5454988095386193,0.0007326702103254808,1.1342183185242167
2.4070566260443798,-34.567968402987574,49.404080093338536,-143.71463198600247,103.82235526830922,-215.04767353647622,0.5454988095386193,0.0007326702103254808,1.1342183185242167
-24.74285634028513,-18.68846180841993,0.023130319277186118,-72.68274081326162,-44.29956299219499,-191.14655640632697,0.5454988095386193,0.0007326702103254808,1.1342183185242167
-109.2693750017529,15.28725799357889,19.92035650580138,-22.483225472080505,-57.812499824878074,396.6674756884412,0.5454988095386193,0.0007326702103254808,1.1342183185242167
134.75021910825217,85.43847133799062,-81.39884449701633,122.68118467826241,54.84674219464952,-173.68704663802993,0.5454988095386193,0.0007326702103254808,1.1342183185242167
-136.87729497790815,34.126914768683946,65.37642522373716,-43.99118857427837,-70.67105241139694,134.74813197138667,0.5454988095386193,0.0007326702103254808,1.1342183185242167
73.49861107917457,6.763387914326415,10.926252982404804,-18.003794183643123,-100.10457544053466,323.75555591998386,0.5454988095386193,0.0007326702103254808,1.1342183185242167
-27.614946899279147,91.53850484603092,37.178391894446094,-45.03473118296171,94.12188382270514,118.7085735420244,0.5454988095386193,0.0007326702103254808,1.1342183185242167
57.94104907217522,95.01011243322463,57.71145179388651,-65.90598216166856,-0.9308350827551237,-73.24270450360092,0.5454988095386193,0.0007326702103254808,1.1342183185242167
-39.05011394841138,-106.0748898082642,-71.94014583317474,112.1766939957202,38.05123152264335,96.63086496597873,0.5454988095386193,0.0007326702103254808,1.1342183185242167
83.23796121960729,91.19389750125987,35.09101157693675,-73.72437147743057,72.52143472756703,283.76621379207234,0.5454988095386193,0.0007326702103254808,1.1342183185242167
-83.25391373922555,-51.68723404864302,44.26054172622375,136.79504805151305,-87.0932394464202,23.65998996695896,0.5454988095386193,0.0007326702103254808,1.1342183185242167
155.4699815012566,53.97402453382219,-29.50940407636459,-148.6560104139723,58.338229645011324,74.62618518670956,0.5454988095386193,0.0007326702103254808,1.1342183185242167
-160.0221164633408,-75.17759812835669,-49.80213600277951,146.84547447671258,112.60724825702798,330.99714706557074,0.5454988095386193,0.0007326702103254808,1.1342183185242167
124.65732859165001,-22.966899255371757,-53.5021443568358,-117.83132421879046,-20.70855820934851,347.19916496459996,0.5454988095386193,0.0007326702103254808,1.1342183185242167
42.45048245640925,-82.88528182917744,-72.8421088481411,55.959241232646605,14.042383768562473,-26.558142031870545,0.5454988095386193,0.0007326702103254808,1.1342183185242167
60.29493497165865,-90.49022531721405,-17.06519867290612,-5.249249718904366,15.995531504287584,-140.29098848409836,0.5454988095386193,0.0007326702103254808,1.1342183185242167
13.532886100985792,-83.41378799634997,13.700104576725508,-78.1139213068932,-33.4076261854064,196.80367208216774,0.5454988095386193,0.0007326702103254808,1.1342183185242167
84.81046050409219,-97.63406587605752,-2.8839946805738066,159.00941017228854,109.31541083994853,348.1967193070552,0.5454988095386193,0.0007326702103254808,1.1342183185242167
-163.93149963915596,104.82426842079315,-11.846045047766836,-65.79364161587097,-62.944923831810485,-295.1313755537343,0.5454988095386193,0.0007326702103254808,1.1342183185242167
-2.43806491517401,-87.4726145290764,0.4456161184099017,126.00559869377054,-73.16798045081185,-394.32128786496384,0.5454988095386193,0.0007326702103254808,1.1342183185242167
40.45606382375999,98.83912987183706,49.81324811055785,31.371500077642594,-87.06413020054563,334.90296909724884,0.5454988095386193,0.0007326702103254808,1.1342183185242167
151.05962122668404,-48.96831111266091,29.91806901683978,-74.99350447893417,-66.89907800012296,-194.21073692800653,0.5454988095386193,0.0007326702103254808,1.1342183185242167
147.8068248186675,-33.19752462114019,-86.0295292101319,-139.8229991238303,47.39783621088651,-202.52986299182584,0.5454988095386193,0.0007326702103254808,1.1342183185242167
-76.94453764076286,79.5413519993306,-62.56155929208745,-151.64699901065876,-87.28592434241975,235.09197640573416,0.5454988095386193,0.0007326702103254808,1.1342183185242167
-34.409797005816046,-11.540497670585609,11.427589298800328,-12.379374963798114,-25.82071498937843,-97.5673047674407,0.5454988095386193,0.0007326702103254808,1.1342183185242167
-164.9501434540386,29.759957194842343,-103.71175368171403,123.59759401595181,-57.70492634378833,370.4043206400105,0.5454988095386193,0.0007326702103254808,1.1342183185242167
-125.8848671291433,57.649093311602485,47.00792890505133,-122.24175319559518,-111.81042194371827,291.94812906291975,0.5454988095386193,0.0007326702103254808,1.1342183185242167
-40.10611185734989,-22.22436135768602,41.12871892938466,125.89337230379999,-105.73853592097007,-317.64181388624337,0.5454988095386193,0.0007326702103254808,1.1342183185242167
-112.20435558377513,69.86012483191155,-104.93651556154789,39.72448432289076,-7.340895564084505,19.761578655705478,0.5454988095386193,0.0007326702103254808,1.1342183185242167
5.969626852629688,88.81295264154818,2.9943868855273905,91.60430493810418,108.54161512774616,-34.18532097575746,0.5454988095386193,0.0007326702103254808,1.1342183185242167
57.25367730447988,13.646876551376948,-44.94981191035099,114.678443010281,-6.873940725310078,-176.70811426523585,0.5454988095386193,0.0007326702103254808,1.1342183185242167
1.8259103996882118,25.271328602251742,20.79740442030817,-35.3166520152929,11.518928572047685,-328.0581469437734,0.5454988095386193,0.0007326702103254808,1.1342183185242167
137.2985990899533,15.958455911529995,-22.96325545439892,-153.25785818932547,30.789265268224568,261.6447506041445,0.5454988095386193,0.0007326702103254808,1.1342183185242167
-35.9368841273251,-19.64411773236715,-71.66893765539021,8.303431342485453,80.89783263736135,337.9624222874536,0.5454988095386193,0.0007326702103254808,1.1342183185242167
-1.832778096573719,48.34605881553907,-104.66541561501708,15.928971221872104,-108.73110161530848,-145.79166689618467,0.5454988095386193,0.0007326702103254808,1.1342183185242167
-23.717885018848932,13.715804334822295,34.78003977900414,145.52054561813128,-1.9394802932533537,-36.83254706216485,0.5454988095386193,0.0007326702103254808,1.1342183185242167
137.50559338247314,-48.56308712939618,-109.85856494690023,146.80110902763852,34.04789939817479,153.40344113585957,0.5454988095386193,0.0007326702103254808,1.1342183185242167
-79.40879169767697,-75.24310128478655,58.27370642063616,-146.08199350777878,-89.4028227816548,-19.07388302363273,0.5454988095386193,0.0007326702103254808,1.1342183185242167
17.890961744475106,-52.69736639479278,-59.91783692429182,-92.66841239769622,-103.21254120362337,-281.1524429268172,0.5454988095386193,0.0007326702103254808,1.1342183185242167
3.3034437847407503,-3.0158569547530476,3.672817579556579,101.88603012832834,-101.09783264135692,291.51251273432956,0.5454988095386193,0.0007326702103254808,1.1342183185242167
125.77456631051297,-17.278346468008294,-14.37115855340788,-3.5701098655142687,-95.60436397587478,63.59390477654625,0.5454988095386193,0.0007326702103254808,1.1342183185242167
82.4915350635147,-31.566035960406126,-15.14519265448233,123.398527861932,61.110345678323284,325.6535921420333,0.5454988095386193,0.0007326702103254808,1.1342183185242167
164.4548411626517,-80.35906725655967,-46.87923346697123,-105.59227226433762,114.33462845454969,-72.26029994576112,0.5454988095386193,0.0007326702103254808,1.1342183185242167
-84.29649066264383,62.334236929502964,-14.50586888931359,-131.12529548262614,119.02446431952598,-354.0314366439329,0.5454988095386193,0.0007326702103254808,1.1342183185242167
151.92766542301143,17.990269856132997,-84.65767930149819,52.939375091705216,72.13560123264531,-100.04263750772725,0.5454988095386193,0.0007326702103254808,1.1342183185242167
21.221642048472688,15.863938142948314,24.149139591430725,10.818991770143839,-112.2407133925322,-291.00263734582563,0.5454988095386193,0.0007326702103254808,1.1342183185242167
-75.4803324013048,-11.180692664878066,-12.730618705303499,-40.55901612538935,29.440765849105105,-105.26211546365198,0.5454988095386193,0.0007326702103254808,1.1342183185242167
131.3479274084766,19.891387241944216,-63.46042820593385,68.38232061336782,53.36458334981319,273.27022601792976,0.5454988095386193,0.0007326702103254808,1.1342183185242167
151.27203989623615,10.19487746425412,54.073108091140824,-42.179914126306784,100.32340577980065,-215.75588079687248,0.5454988095386193,0.0007326702103254808,1.1342183185242167
-47.36675236638763,-69.166001918002,-21.314840861412392,-88.38500930887022,17.312906822008614,354.04159463539645,0.5454988095386193,0.0007326702103254808,1.1342183185242167
-139.33703494925257,-15.427225770202696,-13.785176966024025,-30.14577574012145,5.93626593903366,76.87266586909243,0.5454988095386193,0.0007326702103254808,1.1342183185242167
68.88617948582191,-55.38002805314499,-102.37366147569654,-130.7062857795739,-104.98605104754814,-200.22194436740284,0.5454988095386193,0.0007326702103254808,1.1342183185242167
26.024392651768125,-37.27311114419088,22.474575574614818,153.12745052858867,47.750600710301626,98.09431106731967,0.5454988095386193,0.0007326702103254808,1.1342183185242167
-164.26724103839112,-87.46279384329202,-93.40929936057978,-123.74375330933671,-18.13820220294909,-201.407595155832,0.5454988095386193,0.0007326702103254808,1.1342183185242167
85.66802011701296,-2.342148679903815,-63.171630300522104,-5.958872144859157,-20.25038347242402,-172.2931139525614,0.5454988095386193,0.0007326702103254808,1.1342183185242167
10.349700958771791,-10.605055869098024,-31.64761026727541,-103.42600624690479,13.811005030140677,267.1834163917373,0.5454988095386193,0.0007326702103254808,1.1342183185242167
-10.201223752799962,107.79135948484162,-42.406389646524744,-108.42452218764045,-40.05146542806938,-93.34806599061352,0.5454988095386193,0.0007326702103254808,1.1342183185242167
-151.93876829597278,-88.065854118263,-29.175061875671943,13.217970080883532,79.76769736426994,-9.12064114299369,0.5454988095386193,0.0007326702103254808,1.1342183185242167
-59.880516553270056,-21.3630597513403,-7.978426984097837,98.09260537651187,91.86177510673394,182.6341958885282,0.5454988095386193,0.0007326702103254808,1.1342183185242167
-143.44950156883246,46.489134683750876,-93.17625433261585,149.16358245906287,-83.25558567673993,344.91417214239436,0.5454988095386193,0.0007326702103254808,1.1342183185242167
-163.75093171932335,96.2862617293678,-51.57231018910776,83.42575873458458,-37.06147259184401,-200.38709987296022,0.5454988095386193,0.0007326702103254808,1.1342183185242167
-5.814974167697272,22.20801320090763,-28.287238423569363,-143.03175966301234,79.13847263368393,359.15344816143374,0.5454988095386193,0.0007326702103254808,1.1342183185242167
-16.384310051871097,71.07070535895014,69.72691069540261,90.72102531776008,-9.888792864210501,393.87274065739484,0.5454988095386193,0.0007326702103254808,1.1342183185242167
-66.53404864154415,92.57179701169352,60.384575826248295,156.2756988957404,-102.97760819295023,-390.7951912870595,0.5454988095386193,0.0007326702103254808,1.1342183185242167
-110.95064727117776,-80.87058757932186,-24.51524762165242,149.53465414335528,-16.984700993142198,-91.17663282479265,0.5454988095386193,0.0007326702103254808,1.1342183185242167
-126.9604463253682,61.13088226639516,-35.363569061799694,129.75256648962744,-4.711397806038363,79.09773672544088,0.5454988095386193,0.0007326702103254808,1.1342183185242167
-41.48893778541927,-87.77116028509757,62.38830520983609,158.3330675183817,-52.296888075235856,278.78341418902653,0.5454988095386193,0.0007326702103254808,1.1342183185242167
-159.613849473799,-97.03416595056555,51.14325863611296,114.00019436845304,35.09932226820786,22.541809142559828,0.5454988095386193,0.0007326702103254808,1.1342183185242167
-136.57665073861352,108.98406872364939,-105.68776310321182,135.9264180100289,-45.40465510019311,373.4056902819633,0.5454988095386193,0.0007326702103254808,1.1342183185242167
-132.05305527907018,-93.92092732899667,-35.17358758236281,16.731563371912728,106.10414356527247,320.6050306427097,0.5454988095386193,0.0007326702103254808,1.1342183185242167
0.4714791279979238,-106.1784564868379,12.42761975479523,-134.6122966944448,75.24233538444608,-171.71642540297034,0.5454988095386193,0.0007326702103254808,1.1342183185242167
-118.161113658793,25.181104899920996,-49.93483247128189,99.99614765640814,97.1675467835033,-243.07997524674033,0.5454988095386193,0.0007326702103254808,1.1342183185242167
141.30887699500005,19.04098655266037,-96.0532825355919,-36.542160079079835,7.435961852876488,71.33100872436466,0.5454988095386193,0.0007326702103254808,1.1342183185242167
116.53395115465827,90.30023123946305,-16.491762159790426,-130.54991746387188,87.98114253151533,-318.49742426251737,0.5454988095386193,0.0007326702103254808,1.1342183185242167
-123.88968772811916,-39.973133493011574,-9.858097567622224,-27.263640772078162,18.29855204519066,-180.56079885894798,0.5454988095386193,0.0007326702103254808,1.1342183185242167
-129.57143337801992,-23.7440617030297,56.92291834130015,-42.497899421458214,-62.15397631580802,-357.840095861295,0.5454988095386193,0.0007326702103254808,1.1342183185242167
126.47249292715696,-101.73478550903127,12.475180855894436,10.85910441345672,-35.04450627932441,202.7066611240191,0.5454988095386193,0.0007326702103254808,1.1342183185242167
-12.2718951661534,-78.62205536425125,-36.114026360780116,-18.58912374513693,-60.9253209147826,-259.1077288047792,0.5454988095386193,0.0007326702103254808,1.1342183185242167
108.13225896500762,34.25820759137167,53.73612540481105,155.32976790337176,116.6767485287383,40.19806697231542,0.5454988095386193,0.0007326702103254808,1.1342183185242167
-142.07545061250605,23.588375237873066,-100.08829562415045,-146.02056232798088,-9.346582752893909,-121.21921486697096,0.5454988095386193,0.0007326702103254808,1.1342183185242167
114.85555017503123,-8.739929187373406,-47.4420257571642,-144.61920273746625,-44.92622539324668,-19.745681587972513,0.5454988095386193,0.0007326702103254808,1.1342183185242167
89.84689383946036,98.81435574981825,-31.747910901355823,120.05266768683134,-86.5413206477258,-138.0828642999714,0.5454988095386193,0.0007326702103254808,1.1342183185242167
130.52106788037764,86.36456260275429,-51.696143828401944,97.50460065622116,-91.31209412447095,-333.9073617370482,0.5454988095386193,0.0007326702103254808,1.1342183185242167
-119.90205592457258,43.14714473711874,-66.19317814460726,-57.07289076342977,-110.25049602520501,307.10320675965716,0.5454988095386193,0.0007326702103254808,1.1342183185242167
-162.46745829953966,83.85936518061482,66.43690290504463,100.25064474033354,66.92031878771644,-85.98488639035162,0.5454988095386193,0.0007326702103254808,1.1342183185242167
11.38818351234076,-13.916309567881044,-87.3640779185161,-105.80710951236694,-69.36226364625645,-307.51120962517257,0.5454988095386193,0.0007326702103254808,1.1342183185242167
37.84312224579148,79.68899367266445,66.65073866244637,148.22811502622187,-41.088722966751476,175.00082445344685,0.5454988095386193,0.0007326702103254808,1.1342183185242167
-125.08652433885851,56.56632548453271,-103.43365512986678,-64.48335533615688,27.688834677443253,338.68777599585644,0.5454988095386193,0.0007326702103254808,1.1342183185242167
18.603291823350816,-85.61940737128131,-95.00202518621852,64.32335048147397,6.132559283082031,-347.96745544581535,0.5454988095386193,0.0007326702103254808,1.1342183185242167
84.95312786461105,43.6880267403705,-98.31851788707544,-33.05513156676892,-119.49802503481392,-110.6414393130475,0.5454988095386193,0.0007326702103254808,1.1342183185242167
30.2648446133164,-105.81593162284663,24.15139684429755,-86.27732273591616,38.65365439812018,-330.8297256781497,0.5454988095386193,0.0007326702103254808,1.1342183185242167
46.23333769235103,-1.4963008097583383,50.04431808919708,-49.110179529365894,-38.9187259493242,-266.71312133579823,0.5454988095386193,0.0007326702103254808,1.1342183185242167
115.43844700549477,-38.484594298951606,-17.99917536895282,-102.16606529679609,-80.32141919865106,321.369613568692,0.5454988095386193,0.0007326702103254808,1.1342183185242167
12.383489484097367,90.76714892782027,-106.13005608375427,-39.76679182404794,-87.73356044260936,-384.0529030954978,0.5454988095386193,0.0007326702103254808,1.1342183185242167
-109.58944152286502,-102.21098981626838,5.146097233785994,-152.82377347804785,-35.18579724465333,-379.826726340748,0.5454988095386193,0.0007326702103254808,1.1342183185242167
92.55366030766476,27.76661748481584,13.715368672681308,80.52180928819371,-88.6547209313026,-22.33393429541337,0.5454988095386193,0.0007326702103254808,1.1342183185242167
-46.570538049532914,-81.47390011649412,30.639322044937302,24.123387474981797,52.339097713309286,28.432573128081742,0.5454988095386193,0.0007326702103254808,1.1342183185242167
-163.01773168224472,-68.09213457008069,-88.10326652184962,-53.943605219227635,106.42686650291358,112.10449752752879,0.5454988095386193,0.0007326702103254808,1.1342183185242167
46.469020418237136,-65.11249872031458,-22.049805553383166,-156.670022879956,-36.10259836809141,216.16309345058744,0.5454988095386193,0.0007326702103254808,1.1342183185242167
55.05118172125455,83.49168276500234,-87.14066815933961,41.566823579155,102.08825888221281,-10.416826452713053,0.5454988095386193,0.0007326702103254808,1.1342183185242167
-110.99511030528647,7.539030345011426,-27.994704970670057,85.65785126688439,-9.36132122589872,205.12193791875802,0.5454988095386193,0.0007326702103254808,1.1342183185242167
-125.06396223476793,-82.7276408830695,-52.81548468076223,-73.47644244488173,-33.33863669651305,-220.7282636761783,0.5454988095386193,0.0007326702103254808,1.1342183185242167
-22.65673597980836,102.67906633375364,-45.66022843388241,53.43275271687574,-91.51126949889829,-345.66299105104594,0.5454988095386193,0.0007326702103254808,1.1342183185242167
51.198498589955136,-73.43961818560203,44.829669261354155,114.828822668967,48.73286751616919,228.79187709234873,0.5454988095386193,0.0007326702103254808,1.1342183185242167
74.04091012183738,-25.72142565144759,-29.26079469281848,-101.6470963073894,-69.76123800005963,-231.33984608929143,0.5454988095386193,0.0007326702103254808,1.1342183185242167
-140.37288605709324,-39.38096170230172,51.489504222325024,-156.44494353472393,58.76011270764582,-115.84715869420734,0.5454988095386193,0.0007326702103254808,1.1342183185242167
91.91610812942201,-62.21496163134167,22.034927587529694,-28.773138446320388,29.48547784130932,-298.71240433563037,0.5454988095386193,0.0007326702103254808,1.1342183185242167
-62.378476351340396,-30.294044015528343,8.379794940307207,-36.577908292744326,5.1380846643028235,22.879243873440714,0.5454988095386193,0.0007326702103254808,1.1342183185242167
-16.850077110978788,-44.88860460972646,-48.5444051836899,-105.89695445911443,50.75677733486256,-112.23818161877762,0.5454988095386193,0.0007326702103254808,1.1342183185242167
-136.82967049448808,-29.165331529631345,-37.68668317681593,55.392245101367166,-65.08067451746588,-332.85508488235786,0.5454988095386193,0.0007326702103254808,1.1342183185242167
159.27927796469498,46.677038329574174,-67.37899225658484,117.87415893978198,50.53270154691546,59.86640865443144,0.5454988095386193,0.0007326702103254808,1.1342183185242167
-59.65263872047916,104.29219846055503,-45.86688686956839,90.0051298727071,41.147234909514935,-105.4976421347688,0.5454988095386193,0.0007326702103254808,1.1342183185242167
-91.97153366479482,75.89783696670332,-34.87181074282731,7.7724801908499614,60.46461470699478,-234.57634216853026,0.5454988095386193,0.0007326702103254808,1.1342183185242167
97.10823314443496,43.48752022252859,-69.5450677025897,-109.23796699503448,62.02540338921139,248.41499087008833,0.5454988095386193,0.0007326702103254808,1.1342183185242167
-157.24135624308295,78.8649439535871,6.110480565169752,-31.931523737057887,101.52363319930961,-34.184254427979454,0.5454988095386193,0.0007326702103254808,1.1342183185242167
-33.700899292576366,36.00431586392705,33.76108881653445,-96.03486648078675,-30.001851734171566,373.0842983046276,0.5454988095386193,0.0007326702103254808,1.1342183185242167
-109.90747589045063,80.52637768404503,10.487562993874462,146.82423489057732,-84.52423616296923,58.82359144532393,0.5454988095386193,0.0007326702103254808,1.1342183185242167
107.56297949629749,7.168099790377454,44.21594462433802,-89.17959471311238,-80.70713311103516,-82.90850746369466,0.5454988095386193,0.0007326702103254808,1.1342183185242167
39.80863511946154,-13.817678170148213,-29.569186956479,124.83606282910364,-6.027866341228773,-396.46351949645924,0.5454988095386193,0.0007326702103254808,1.1342183185242167
-47.03108104854954,-28.640382061296535,25.588353102993693,72.99409388968516,30.579360747595587,-92.53938425755518,0.5454988095386193,0.0007326702103254808,1.1342183185242167
-64.89931977464919,29.709757557005446,19.556834256609136,141.4563332342085,-62.08421072650338,180.64561262479253,0.5454988095386193,0.0007326702103254808,1.1342183185242167
-163.29351851120666,47.0039818036945,2.9773485815680942,-127.2394174779754,-8.704702383175885,-31.001243189130093,0.5454988095386193,0.0007326702103254808,1.1342183185242167
39.42659719581599,18.004937798401073,-65.5892120738925,119.58556952946236,47.975747638082424,136.42160700390593,0.5454988095386193,0.0007326702103254808,1.1342183185242167
-72.160944807121,89.92476964658005,16.98527599624211,106.82271188223666,-112.06260313656537,-351.3056905112735,0.5454988095386193,0.0007326702103254808,1.1342183185242167
126.61965463737869,1.9245698977492793,52.49028569727366,73.8099794165183,-103.89972221407261,77.44846312108484,0.5454988095386193,0.0007326702103254808,1.1342183185242167
-72.16459858218974,58.443157451845366,-0.7203693619226783,-68.15624113161867,-54.6354081974484,295.9774944350602,0.5454988095386193,0.0007326702103254808,1.1342183185242167
67.55003825094136,97.69671096091832,-34.72763469250103,58.80225034234232,-53.24830049917222,-144.45350070996045,0.5454988095386193,0.0007326702103254808,1.1342183185242167
87.93190342369363,-79.97481725664977,51.31158173904066,-2.477927011594801,-9.476796051814091,260.71460405268056,0.5454988095386193,0.0007326702103254808,1.1342183185242167
-18.163231091975177,-44.81089501877695,-94.02029551705971,120.89753348007252,-86.26124248526762,182.89857777717054,0.5454988095386193,0.0007326702103254808,1.1342183185242167
37.66199633099572,-95.21296932714253,-108.43785283332653,72.57722775263733,-102.05938084102978,78.52992679634355,0.5454988095386193,0.0007326702103254808,1.1342183185242167
-154.03109002961486,-70.66795346383114,-19.22438714718139,-135.72887024750287,-48.513825793863575,390.25700551903674,0.5454988095386193,0.0007326702103254808,1.1342183185242167
-110.3260457739506,100.03063981206483,13.427556087123108,108.18255355904421,-41.06643994646623,0.2585699501373142,0.5454988095386193,0.0007326702103254808,1.1342183185242167
-90.131202457305,106.08015585453418,-59.91797075330809,86.95834581213663,118.36782439843483,-326.84603910791736,0.5454988095386193,0.0007326702103254808,1.1342183185242167
121.72502234999632,36.331150804783476,-4.225018306850572,0.15202370228018935,82.75246549399054,-248.17192709063,0.5454988095386193,0.0007326702103254808,1.1342183185242167
-122.97583378658352,34.92184889324011,-34.344683022862014,-159.21010119973226,110.05272322262687,-141.40174072614752,0.5454988095386193,0.0007326702103254808,1.1342183185242167
126.19119764722615,-72.53357706179645,-36.71959763952532,46.2764263167802,-4.396556164725155,-222.5082188894924,0.5454988095386193,0.0007326702103254808,1.1342183185242167
-18.74816194990518,108.3293378101371,-77.49118024391478,123.83454750554984,-115.04938397540099,-49.662080400712114,0.5454988095386193,0.0007326702103254808,1.1342183185242167
130.77797765962544,-65.54951230401944,-55.09128918451179,111.45567476691014,64.7366354179477,-338.98523464474744,0.5454988095386193,0.0007326702103254808,1.1342183185242167
-115.79277867471814,68.87841925384592,-51.63974285314816,101.88857510997678,59.995341275121746,54.28880904838786,0.5454988095386193,0.0007326702103254808,1.1342183185242167
-20.826024055111674,60.68745221411692,-59.026391057756086,-3.0966503328970134,65.12026331820115,339.831756886358,0.5454988095386193,0.0007326702103254808,1.1342183185242167
-7.529863858278446,69.99155734516071,-43.0093315500381,-125.03488796981597,0.23017922047988293,-42.622089522518195,0.5454988095386193,0.0007326702103254808,1.1342183185242167
44.02469964929273,-56.37930047403928,-53.44973300038895,-136.5503230502823,-82.3734723086836,320.06598123788126,0.5454988095386193,0.0007326702103254808,1.1342183185242167
18.601238432495705,-82.78625486746316,-82.81223910263463,-147.73510298724048,81.48254229838744,-376.30232957276365,0.5454988095386193,0.0007326702103254808,1.1342183185242167
63.43237654872311,-9.37089348614768,-105.10885389758286,60.775650510881235,65.36799567967074,279.8793672494977,0.5454988095386193,0.0007326702103254808,1.1342183185242167
-108.12835591622638,89.37124186397216,-40.05911255562296,108.81801673095441,57.41511703493518,-295.8430989546307,0.5454988095386193,0.0007326702103254808,1.1342183185242167
-91.25755368459812,-101.35065139945422,-96.62657940241934,-110.33236381149052,83.52336781676053,271.05399390349623,0.5454988095386193,0.0007326702103254808,1.1342183185242167
106.04972872010683,95.34044870157706,9.880897107252395,-33.929706320119735,-27.428388216730482,-149.21640982700816,0.5454988095386193,0.0007326702103254808,1.1342183185242167
-86.36442169317179,4.908773715358237,-40.82769325051095,115.05562368701243,25.24022985448744,-294.45917381587924,0.5454988095386193,0.0007326702103254808,1.1342183185242167
143.43836950881843,-86.01254456367634,-65.97180738501416,75.88092228795841,40.52010945914802,-250.73465470137623,0.5454988095386193,0.0007326702103254808,1.1342183185242167
43.683639036832574,-18.23778986281843,-83.23437291780803,-74.53622672732448,-92.88984927657036,-229.00567278455375,0.5454988095386193,0.0007326702103254808,1.1342183185242167
142.34752309737263,69.94771724093528,-45.02242152473029,86.6578759134253,70.7668978096427,-380.96467070474375,0.5454988095386193,0.0007326702103254808,1.1342183185242167
156.48519307856913,99.53189803878371,32.42424216582921,-122.90796583112801,-12.751086950658618,-130.2348914204103,0.5454988095386193,0.0007326702103254808,1.1342183185242167
82.81604567868166,-40.088629384426625,-48.67969316853463,21.923855273442314,-93.58550360811748,172.52300802516697,0.5454988095386193,0.0007326702103254808,1.1342183185242167
-107.7112765164378,-99.0148421937931,-22.953584172235253,99.18325018007545,-22.766780866141886,253.997973924725,0.5454988095386193,0.0007326702103254808,1.1342183185242167
111.10786111607189,34.65235367261619,-22.583952915132343,136.31554324145588,109.9092989062074,-37.70528059178514,0.5454988095386193,0.0007326702103254808,1.1342183185242167
109.541353208879,-58.98797056571181,-97.28858030166582,-135.49492713994147,78.99704627170601,212.01481825099688,0.5454988095386193,0.0007326702103254808,1.1342183185242167
71.78634422690072,-23.453701220594994,-80.40971276135083,-51.43592525587704,-20.329196197311518,286.0735539410905,0.5454988095386193,0.0007326702103254808,1.1342183185242167
-146.6272436143502,51.47846657977064,-57.244932086970216,-72.30312101329012,-6.429686473421327,-14.835577437123959,0.5454988095386193,0.0007326702103254808,1.1342183185242167
-86.59273929323538,60.33704428655952,28.483855999891716,113.70456068621155,56.51844876098056,-241.15018108737826,0.5454988095386193,0.0007326702103254808,1.1342183185242167
-82.48838530103225,-39.999780031899746,-61.84342378518436,-134.0876220859444,47.53956749246515,-29.388424887510553,0.5454988095386193,0.0007326702103254808,1.1342183185242167
-48.71805972486845,46.96773250029236,-33.6463889985545,49.27539209407516,28.336538438965164,-336.0822022384731,0.5454988095386193,0.0007326702103254808,1.1342183185242167
-10.64975360936404,29.01614174495117,-103.22495972950885,-7.382739298408069,-77.22236962260297,-304.1582287767173,0.5454988095386193,0.0007326702103254808,1.1342183185242167
-116.2893246717914,-103.09400465645598,4.509945755536819,-134.89053838134654,-36.10217548713264,244.2965597362629,0.5454988095386193,0.0007326702103254808,1.1342183185242167
-12.93751367667872,98.5936714449389,10.601332189121521,-22.195900824411183,-97.87339085274971,323.9720583514601,0.5454988095386193,0.0007326702103254808,1.1342183185242167
-12.428691006427414,-36.10495194941777,-30.22425793941173,-126.69639213763737,-116.65555843187563,280.3641670394404,0.5454988095386193,0.0007326702103254808,1.1342183185242167
115.26280373032051,-68.47111524286393,-66.31542270290086,151.9853707884675,111.30006347001944,-394.1507062126369,0.5454988095386193,0.0007326702103254808,1.1342183185242167
-145.25257569296508,-47.28613550080168,-75.59079115944195,-5.640312829154112,-96.47758125225508,293.9462287884619,0.5454988095386193,0.0007326702103254808,1.1342183185242167
111.04991069726327,-78.17429048538735,-18.734233874220152,19.772145997940953,-61.96179103291254,130.70722989423757,0.5454988095386193,0.0007326702103254808,1.1342183185242167
-69.61733179357338,-10.478445874826377,-26.79409683167904,-99.17019835959557,78.3270042083308,-187.2474264963552,0.5454988095386193,0.0007326702103254808,1.1342183185242167
41.64215357302865,86.28366713341038,-88.28900698446128,-69.44530560241411,83.802181506002,397.54266786555934,0.5454988095386193,0.0007326702103254808,1.1342183185242167
-89.4687898376413,-38.344725652064156,-27.28775590283108,43.43020634934629,-44.260528884115246,-317.1129414040224,0.5454988095386193,0.0007326702103254808,1.1342183185242167
161.67019194022453,83.97621126009656,-7.290349430637946,-94.95446501572822,-54.98219806843579,59.62159977049237,0.5454988095386193,0.0007326702103254808,1.1342183185242167
83.01436104220545,-41.26485342877956,69.0718821173721,-93.87101163667118,-73.50927762586316,339.3924616824248,0.5454988095386193,0.0007326702103254808,1.1342183185242167
103.11474252250275,-103.16751072033323,53.17994788054554,-71.97491613209937,77.96873288038313,245.41582313000117,0.5454988095386193,0.0007326702103254808,1.1342183185242167
-137.15704012220033,31.234130516997396,11.294029221956748,-76.2079826609772,-106.82620485512521,-138.21255108560723,0.5454988095386193,0.0007326702103254808,1.1342183185242167
-116.67832876084672,93.00592517841116,-104.35599479236733,103.8402505254478,104.69063745296143,-301.0759200872574,0.5454988095386193,0.0007326702103254808,1.1342183185242167
-133.80471532259813,-9.23432586434133,67.28502986069947,86.87674044203368,-48.865683070683815,-32.6417962861953,0.5454988095386193,0.0007326702103254808,1.1342183185242167
54.26948829947489,-20.12248823287389,-52.52743786035398,-132.83503397212925,-32.59175015203377,208.10458661751534,0.5454988095386193,0.0007326702103254808,1.1342183185242167
-17.62827049092894,23.7557063246945,-72.12736617988051,-106.65643356973746,-114.6570852605608,-70.05513384700953,0.5454988095386193,0.0007326702103254808,1.1342183185242167
70.62452813207958,59.92417390214055,-0.24151368984622934,-134.6303059451462,60.041177261732116,-156.02615781267124,0.5454988095386193,0.0007326702103254808,1.1342183185242167
107.79329073200711,-55.96364979262516,-35.69223866690331,85.66421168713367,79.52459921717741,-334.9848069849955,0.5454988095386193,0.0007326702103254808,1.1342183185242167
31.549512983443066,61.670661342763196,-32.33735728535723,123.4853740238691,-55.97551829855574,-290.8506221695242,0.5454988095386193,0.0007326702103254808,1.1342183185242167
37.84676015875726,53.0319857879021,32.23391120294923,-94.26049804027645,-31.714633648874766,113.04944132892274,0.5454988095386193,0.0007326702103254808,1.1342183185242167
142.87740878395465,-107.15429588009349,12.01470626945816,33.909215835967245,-85.55092432500517,331.51787430687205,0.5454988095386193,0.0007326702103254808,1.1342183185242167
8.369360824783882,91.69112050926938,-66.81661631408873,-38.631761429569764,41.179639902275994,148.88173861438463,0.5454988095386193,0.0007326702103254808,1.1342183185242167
32.315357258829664,-102.55539806727616,-20.724690028676847,9.583989150720754,-117.39119501851759,-334.5986478637105,0.5454988095386193,0.0007326702103254808,1.1342183185242167
90.14143200950292,86.81579475043407,16.16384725390327,-54.148105727252585,108.83835018853114,-178.9093976309217,0.5454988095386193,0.0007326702103254808,1.1342183185242167
70.42638124308309,41.105988136465214,-88.17724614591157,-3.68288590962527,-20.41359058538137,371.71844897526853,0.5454988095386193,0.0007326702103254808,1.1342183185242167
-34.86632526283964,11.887806306585418,48.96491448973137,97.95756895525392,94.60655471763008,227.08717496428676,0.5454988095386193,0.0007326702103254808,1.1342183185242167
128.77873397338948,-38.75418715388808,1.1684459703638481,-76.47429721739232,-76.0344483052514,393.5409053577747,0.5454988095386193,0.0007326702103254808,1.1342183185242167
-60.926863358188996,-91.06129004033787,-82.00478676074773,76.14803784051173,21.254378074163014,328.4868262248841,0.5454988095386193,0.0007326702103254808,1.1342183185242167
-16.29172591042726,105.49656699290003,-66.31908824519849,108.22963988082313,-26.991795735809575,-235.7385966894781,0.5454988095386193,0.0007326702103254808,1.1342183185242167
73.12503540501439,-4.558455254601512,-104.42985883499817,80.13998302839184,-39.45347128319608,262.35917585541904,0.5454988095386193,0.0007326702103254808,1.1342183185242167
-80.41108656413013,17.803312666659394,-0.4009077500094804,56.96617420162309,89.79517606810643,-398.5205235051146,0.5454988095386193,0.0007326702103254808,1.1342183185242167
88.06532258161403,77.60650687637437,-78.19210054941911,-88.05497217358621,-119.5604886567906,-332.3507624920249,0.5454988095386193,0.0007326702103254808,1.1342183185242167
-29.1760555644112,45.67180447283653,51.719958043087956,-103.27074669497065,92.25013668327941,-296.72921785244597,0.5454988095386193,0.0007326702103254808,1.1342183185242167
66.50583692178319,-101.93154948816354,67.46387605185808,-72.13004742441743,-8.750319521038165,384.97524574851695,0.5454988095386193,0.0007326702103254808,1.1342183185242167
128.31171880141488,-10.318282441407703,62.881028425061686,-103.4818647032175,7.548489839396353,-374.81130766379243,0.5454988095386193,0.0007326702103254808,1.1342183185242167
-107.1736053457009,68.5827757777459,42.7982852260742,-114.14370295504582,37.65155711625039,-114.70352537307934,0.5454988095386193,0.0007326702103254808,1.1342183185242167
77.07308093226317,-26.06191336541721,34.896067045229586,-93.2362688083623,-20.089402116791817,222.0582195265232,0.5454988095386193,0.0007326702103254808,1.1342183185242167
135.95575605845193,-22.037637033112475,-11.698323348153295,-62.76384548111345,10.556279831333853,209.71964298864293,0.5454988095386193,0.0007326702103254808,1.1342183185242167
-118.52489643705945,83.65349314899271,34.458945334545575,159.322934393864,49.64963302405073,-104.7640426515045,0.5454988095386193,0.0007326702103254808,1.1342183185242167
-84.47096117029562,-11.13889592222165,2.178146340562151,-2.442666498457669,50.30604162503124,134.1866615781621,0.5454988095386193,0.0007326702103254808,1.1342183185242167
-69.1962100773339,-7.070646785896841,28.6817925290309,-77.00509102858933,94.94369051426827,225.47358063361185,0.5454988095386193,0.0007326702103254808,1.1342183185242167
23.721593291331033,-21.112480749435818,-87.52774497359215,136.47704702073793,-23.435340757755554,169.2332432568088,0.5454988095386193,0.0007326702103254808,1.1342183185242167
-57.65498120325029,36.71347067499559,-103.00184073667216,-65.3988990507008,-105.11153643135742,269.051113284792,0.5454988095386193,0.0007326702103254808,1.1342183185242167
-139.60469448640006,11.406448723472565,-53.901207863008494,-68.92797844773547,-18.844657266874577,-37.998398802940414,0.5454988095386193,0.0007326702103254808,1.1342183185242167
-126.75019999959795,-105.40995016773923,-103.24165222603847,31.815487525293975,-39.94191501084643,-362.85345699040045,0.5454988095386193,0.0007326702103254808,1.1342183185242167
61.57629184979183,70.42489131373802,45.264765483423304,-139.71154883412683,-49.61367282861357,-199.72593504582113,0.5454988095386193,0.0007326702103254808,1.1342183185242167
40.31770070758165,-66.59581645679208,64.31385164616924,80.51049289479039,8.692968383319112,-295.60908195895433,0.5454988095386193,0.0007326702103254808,1.1342183185242167
-145.15184914211602,-18.192324865040817,-82.60849459381997,-59.06752666237274,88.94902743244,-378.3527329050012,0.5454988095386193,0.0007326702103254808,1.1342183185242167
-114.09126259749455,-14.89860641397209,-27.067140793293134,104.38806739537989,20.58552348121154,-24.267368360043577,0.5454988095386193,0.0007326702103254808,1.1342183185242167
-76.11932538399077,-28.95289292045389,-27.681177976848076,-96.07343981820836,55.042798242306105,-119.8005646062623,0.5454988095386193,0.0007326702103254808,1.1342183185242167
142.1026863434301,12.962934910996069,-72.42937943181107,32.75241829660007,97.02777438445844,-349.7523555683192,0.5454988095386193,0.0007326702103254808,1.1342183185242167
-90.07012346356481,107.29491681795918,51.647699308798764,-70.91520898803967,33.871147621090444,287.00024769128265,0.5454988095386193,0.0007326702103254808,1.1342183185242167
-163.88809593521762,29.314343297249792,-27.923944012567148,-96.89373315242204,55.58485101673659,283.5725955103645,0.5454988095386193,0.0007326702103254808,1.1342183185242167
-95.60730243107753,41.70549402318389,-60.53691693515,-150.8234550177893,0.05878183444690421,331.06124178321875,0.5454988095386193,0.0007326702103254808,1.1342183185242167
-70.44095917746294,18.315480123456013,-7.174085470603387,159.6677846797965,41.899628123138456,379.7112428967415,0.5454988095386193,0.0007326702103254808,1.1342183185242167
73.51593919843941,45.66517398923787,7.856808346644058,75.92607180227546,-111.1899419996372,-107.01114274329547,0.5454988095386193,0.0007326702103254808,1.1342183185242167
-65.3908287554929,-55.89896084102487,31.173750127006286,70.12474500676888,6.07320997344884,116.99475153307719,0.5454988095386193,0.0007326702103254808,1.1342183185242167
157.05738377531299,-96.01528315648613,-17.437623657871526,-32.94295939305539,56.90902269929157,28.733040197655498,0.5454988095386193,0.0007326702103254808,1.1342183185242167
111.08597496153374,26.126884443280403,53.8769339104833,-150.2840809045779,84.89498763771326,219.1301393136406,0.5454988095386193,0.0007326702103254808,1.1342183185242167
-153.1950962586154,-78.82518925499313,49.464074410131474,133.11269973164218,19.89651047892744,-317.33405670567595,0.5454988095386193,0.0007326702103254808,1.1342183185242167
70.36877171351674,-42.583896355194184,6.628146088342092,31.762742542979936,11.865666092836989,392.08449069156984,0.5454988095386193,0.0007326702103254808,1.1342183185242167
-106.18590209610879,-17.267237935358438,-97.35093650505934,-91.53201156776987,-88.43829889445492,265.0162377367541,0.5454988095386193,0.0007326702103254808,1.1342183185242167
9.464438959474023,20.13046617221096,55.25705142989017,-144.6619259365325,-83.27896477384428,-91.0473910810914,0.5454988095386193,0.0007326702103254808,1.1342183185242167
110.23210592557666,-23.95291532284267,38.20194574113407,-131.89462045790864,44.85661454707275,-249.92599714589466,0.5454988095386193,0.0007326702103254808,1.1342183185242167
-120.52943757408093,84.92467981646027,-61.25967694489285,-76.57057472974688,77.19947202313548,107.51650709927293,0.5454988095386193,0.0007326702103254808,1.1342183185242167
-117.56912113906057,100.89090892035398,-96.36409624199482,78.67453066205584,-93.89481260988289,-137.30298780182312,0.5454988095386193,0.0007326702103254808,1.1342183185242167
-46.69260002533538,55.877294995754625,-65.23907639113628,81.36716192402392,-104.78639858830326,322.11572880216727,0.5454988095386193,0.0007326702103254808,1.1342183185242167
85.83751533416381,98.05223197504708,-100.60622796590964,133.38291766288768,82.2152279244836,329.7896400804759,0.5454988095386193,0.0007326702103254808,1.1342183185242167
-3.0674969144085082,86.68488356948873,-76.08966403937849,-69.43643588911056,-63.25552257001724,-345.27068239912546,0.5454988095386193,0.0007326702103254808,1.1342183185242167
-36.31665052332164,-52.51755265110992,-49.66752744325172,-13.22177052794305,18.252468098396065,286.9869384183877,0.5454988095386193,0.0007326702103254808,1.1342183185242167
51.282120414747794,-70.18960890160821,-96.86364340028821,47.10858130625272,60.351647008218436,-209.6400464151194,0.5454988095386193,0.0007326702103254808,1.1342183185242167
16.240456567740267,106.49939913074135,-13.973866631510461,-79.95802577253876,70.44374891000231,-178.95011243544863,0.5454988095386193,0.0007326702103254808,1.1342183185242167
-63.39531661958516,-51.82668657447549,-34.6280819171518,-52.076214456028936,-97.01296507661708,-177.86936579746052,0.5454988095386193,0.0007326702103254808,1.1342183185242167
30.781288481263545,58.14674140761531,-75.35839762821269,-57.62059987942841,86.30390311468685,326.5816511686179,0.5454988095386193,0.0007326702103254808,1.1342183185242167
116.09219975332888,66.04867127588994,-80.74507455742277,-68.31551850266035,-27.92155188102018,-265.85829998435315,0.5454988095386193,0.0007326702103254808,1.1342183185242167
39.62561994814689,-33.54709402673606,-46.95698738799452,-50.100755962196956,-80.01958872087371,291.93026493356126,0.5454988095386193,0.0007326702103254808,1.1342183185242167
84.17405695130017,-19.764904861053196,-45.455532029954,26.91613916100468,-8.959481648486474,331.7274498913047,0.5454988095386193,0.0007326702103254808,1.1342183185242167
-40.31426342373669,-39.05236544307118,69.81548544008285,-108.6366820343364,76.98471648891024,49.00910310228204,0.5454988095386193,0.0007326702103254808,1.1342183185242167
-108.71838930119185,14.161314727956167,3.490680273422626,131.8724673652295,-109.91644955093535,284.92696377277036,0.5454988095386193,0.0007326702103254808,1.1342183185242167
-87.36520499533249,-103.18391059473765,-83.81768105699038,85.75102209429119,-50.19847155281634,259.6485681356895,0.5454988095386193,0.0007326702103254808,1.1342183185242167
-29.833894166837524,-93.20348861329886,5.429501627808094,86.07052808845626,39.691342564448206,285.10160397548134,0.5454988095386193,0.0007326702103254808,1.1342183185242167
16.789589210546097,-72.26939757533435,68.75376179914272,-141.85397032260948,-45.85156734265851,-313.3429909028736,0.5454988095386193,0.0007326702103254808,1.1342183185242167
157.58645258837134,-24.79266085716256,-94.08976656285967,-124.34424017174334,12.022187506121696,200.35684016377115,0.5454988095386193,0.0007326702103254808,1.1342183185242167
-54.94663101793182,-81.6860198045035,20.695431297547685,-50.42259573508349,71.03526497644677,14.21534925786608,0.5454988095386193,0.0007326702103254808,1.1342183185242167
-143.93824577384402,25.527162558818617,39.48720574229404,-133.6654138175747,-10.039369287148574,207.55148622471143,0.5454988095386193,0.0007326702103254808,1.1342183185242167
-61.57882955057285,-79.79738809288094,16.456700844213927,5.207528648474863,113.913977405044,-375.6521581077348,0.5454988095386193,0.0007326702103254808,1.1342183185242167
97.18462176705373,43.27368841933102,-56.25776624293358,16.785728650278173,-106.88072680179599,32.430244585764115,0.5454988095386193,0.0007326702103254808,1.1342183185242167
124.77608327052633,19.37256251797254,-66.37958882998308,-141.68602130413723,43.27254387896798,-39.227988214678874,0.5454988095386193,0.0007326702103254808,1.1342183185242167
-49.49175566812984,29.292829545409177,-107.71056403880547,92.07458195587961,-112.40138816503256,376.8233106552665,0.5454988095386193,0.0007326702103254808,1.1342183185242167
-104.61716016365835,7.6679060688655625,-34.03084590225599,-129.34195440412086,100.4625651920536,233.4011068586019,0.5454988095386193,0.0007326702103254808,1.1342183185242167
-117.7462477200003,-20.31052686567405,-107.37140966056991,-104.17063774291873,-58.71884170854702,162.24189573403225,0.5454988095386193,0.0007326702103254808,1.1342183185242167
-4.74842721992087,99.56819872378921,19.381465695150553,123.09968149236579,106.79933025883551,258.10437705756317,0.5454988095386193,0.0007326702103254808,1.1342183185242167
57.79200665458052,-81.8004921274827,12.43082394299502,-137.82574270743925,-119.08612599809283,-277.75175631772015,0.5454988095386193,0.0007326702103254808,1.1342183185242167
-76.46524519598674,-22.79211193652094,44.7599565497261,-114.86438146550675,39.111354536083326,-71.90237188378302,0.5454988095386193,0.0007326702103254808,1.1342183185242167
-4.067845458215771,19.047078396676113,-43.56772574621195,88.92439098169163,-104.07454113252501,289.4132564500226,0.5454988095386193,0.0007326702103254808,1.1342183185242167
-54.52165169813058,-76.93403408765086,16.73687312653753,-99.24844411639799,-98.68396936076746,-347.6325808359334,0.5454988095386193,0.0007326702103254808,1.1342183185242167
3.2463382359621846,106.75397680756731,-102.65644618543331,12.532407781717097,50.12143789538919,197.61698772694388,0.5454988095386193,0.0007326702103254808,1.1342183185242167
-95.44016790736396,36.761974265107455,-74.48080255406828,-124.866382201774,-29.00883513311824,341.12157060595325,0.5454988095386193,0.0007326702103254808,1.1342183185242167
-115.86825832545972,76.21138419414606,57.52667878778985,130.89976810452413,57.114217897213194,4.012749066125309,0.5454988095386193,0.0007326702103254808,1.1342183185242167
83.93471830113526,108.07817461735755,-61.62489762020995,67.33568458119288,90.09928209930445,-341.8286641029075,0.5454988095386193,0.0007326702103254808,1.1342183185242167
27.083847258255645,-5.123880996921244,-28.718103783918053,-111.3279475212511,90.60780836131553,-340.46721533147826,0.5454988095386193,0.0007326702103254808,1.1342183185242167
57.11682279645939,-0.8073975971779248,-105.12403900504249,114.18409921924604,58.904677459338956,55.63352120937816,0.5454988095386193,0.0007326702103254808,1.1342183185242167
-52.94463650420539,-84.20628059558204,14.13647452321078,-10.428687981082277,-50.181041731023754,317.85271785156203,0.5454988095386193,0.0007326702103254808,1.1342183185242167
-143.02915384435255,-14.130096407499167,-64.43783774664203,-8.77298550754449,-39.858228563322456,-310.65237984358885,0.5454988095386193,0.0007326702103254808,1.1342183185242167
20.77876364795273,-13.706145245888905,-47.952404992856714,-119.85315950191705,103.78794000048993,137.42303067550517,0.5454988095386193,0.0007326702103254808,1.1342183185242167
124.34905077284435,-50.725932679366075,46.85023913018736,47.64844024932097,56.01758388862487,-137.0510740012321,0.5454988095386193,0.0007326702103254808,1.1342183185242167
-121.62705646882588,-79.01312214385439,45.24204984118674,-97.59240505068661,66.23213604719567,324.12026628396336,0.5454988095386193,0.0007326702103254808,1.1342183185242167
-4.57968184034732,42.20447293375571,-78.9469503348651,10.018291037183417,83.90439691933358,-138.1061716856098,0.5454988095386193,0.0007326702103254808,1.1342183185242167
69.2654535792345,-49.6988857411045,-105.31168834057779,14.380478618923973,-41.93415882824888,32.35831927582956,0.5454988095386193,0.0007326702103254808,1.1342183185242167
95.80161091112018,-30.258891974062408,-77.20536917349634,3.572163115394119,63.01365165559838,367.11126058781963,0.5454988095386193,0.0007326702103254808,1.1342183185242167
-103.0566183730063,-62.25772288147267,42.70313855289481,128.05636845544325,101.468552203515,89.15933211680328,0.5454988095386193,0.0007326702103254808,1.1342183185242167
-113.30110742290033,-86.01256990510451,-34.39568175943373,97.1025205571886,105.77186913156777,230.45430597474672,0.5454988095386193,0.0007326702103254808,1.1342183185242167
-67.14803922703153,44.06173783009794,25.04763058909154,19.58450444011612,33.730921577319975,206.75639937180915,0.5454988095386193,0.0007326702103254808,1.1342183185242167
-11.864562668495438,28.612409310563436,-74.87709323205885,121.15839764724547,65.68234935105349,-58.267710540890505,0.5454988095386193,0.0007326702103254808,1.1342183185242167
-143.64893939724425,55.14963562150936,-14.691533767849833,-13.147583896335448,-63.23221253827481,-173.82409367365827,0.5454988095386193,0.0007326702103254808,1.1342183185242167
62.78565265950746,-16.5285391885145,-13.44254990551211,-152.20085264006386,77.19707806495725,320.472122232271,0.5454988095386193,0.0007326702103254808,1.1342183185242167
-6.680174577403591,-48.408962201116914,-97.65545832366954,-19.34063977870224,-118.73123653549453,-3.167506273593517,0.5454988095386193,0.0007326702103254808,1.1342183185242167
7.344451631440677,26.814174914052927,-88.34546915468842,-75.71190482922802,-113.0301118795874,-341.0209665273148,0.5454988095386193,0.0007326702103254808,1.1342183185242167
10.69907976511115,63.25668764612891,-8.599912431258502,-50.10340985192968,32.134030592188395,-34.60458767306352,0.5454988095386193,0.0007326702103254808,1.1342183185242167
157.14604594929347,-10.34618587895568,64.86691386914492,18.089380691659784,95.93191227200847,210.09281059759917,0.5454988095386193,0.0007326702103254808,1.1342183185242167
156.0867581272537,7.15336192133249,0.8475207430349769,-44.891575055557354,-110.69240137592361,-394.98115683720175,0.5454988095386193,0.0007326702103254808,1.1342183185242167
127.69120191001753,7.73088574636553,25.721800628202487,-2.3423637206224726,52.60922106164628,1.0945446229457616,0.5454988095386193,0.0007326702103254808,1.1342183185242167
-132.61762525999947,92.67447711073513,-98.38894235667506,-138.07877103578767,-16.252125205735723,-290.7213441585636,0.5454988095386193,0.0007326702103254808,1.1342183185242167
20.35813426216967,82.0746444707072,-41.637027844769676,84.33468123769705,-38.102208944425115,77.62092658483766,0.5454988095386193,0.0007326702103254808,1.1342183185242167
-163.74313825107495,69.12519024422318,5.290640550755228,46.97481832838932,68.19067382407744,-302.91218945053976,0.5454988095386193,0.0007326702103254808,1.1342183185242167
88.93828470721914,75.00141115402809,-23.436121711985294,-19.967695560073423,-75.71086642881791,-369.2497053856881,0.5454988095386193,0.0007326702103254808,1.1342183185242167
73.32040661392745,-25.576145959669503,6.417966429457465,25.686258020599723,7.191092295658109,-333.07342578104635,0.5454988095386193,0.0007326702103254808,1.1342183185242167
127.94581698174164,-33.41673216926473,-52.357329289509906,120.50487977895773,-3.5441857809389603,-156.6307439997434,0.5454988095386193,0.0007326702103254808,1.1342183185242167
-87.2661817623964,-80.51073511371945,-108.91521856943471,-10.740208869394792,-25.585522541578655,4.631065143573721,0.5454988095386193,0.0007326702103254808,1.1342183185242167
-141.55347253765825,-48.048902661923634,-12.92986612234425,-97.21181978897536,69.51807785283955,204.92369278244064,0.5454988095386193,0.0007326702103254808,1.1342183185242167
17.411534738186674,71.25828897128969,-93.24918514672763,-107.69439227865149,51.96259299213506,-357.16682107583466,0.5454988095386193,0.0007326702103254808,1.1342183185242167
156.79215310563188,64.28542489546052,45.637065619167316,-157.442606503612,89.93230823205786,-266.2987160682684,0.5454988095386193,0.0007326702103254808,1.1342183185242167
-129.35776557746982,77.47066378208183,-104.72304763045337,106.00479540381605,-23.016277541189922,28.100570098572746,0.5454988095386193,0.0007326702103254808,1.1342183185242167
-159.83345093409383,34.25651552369652,-84.95714950679907,112.68255734553372,118.56576049344886,268.07326537829965,0.5454988095386193,0.0007326702103254808,1.1342183185242167
91.24923288495705,74.47651464289666,64.23111264640477,-112.97474447261311,113.86339802188022,-355.4394831901035,0.5454988095386193,0.0007326702103254808,1.1342183185242167
83.42544442298319,-46.17457991048724,53.13910138915071,54.14224365653243,21.061975168117613,-95.57270844598219,0.5454988095386193,0.0007326702103254808,1.1342183185242167
-102.57213071127909,-6.365133711176597,18.369355120558623,152.3338798354029,-47.87774923156749,97.62388840745524,0.5454988095386193,0.0007326702103254808,1.1342183185242167
-138.62052308772985,-35.143138180501126,46.88538126441506,33.85600422281635,83.74461195825407,294.30970204098367,0.5454988095386193,0.0007326702103254808,1.1342183185242167
89.45278115251833,26.526436688365322,-75.09650764121652,158.74619613969168,-60.859015346625604,-345.91043587359485,0.5454988095386193,0.0007326702103254808,1.1342183185242167
-131.7789717475393,-31.056625044098666,-39.284246789612155,-35.022805230431004,-73.58091072416826,308.08572243524145,0.5454988095386193,0.0007326702103254808,1.1342183185242167
